; LightBurn 1.4.03
; CanCam device profile, absolute coords
; Bounds: X26.45 Y11.52 to X43.45 Y28.5
G00 G17 G40 G21 G54
G90
; Cut @ 100 mm/sec, 20% power
M05
G0X29.778Y16.3
; Layer C00
M03
G1Y24.773F6000
G1X30.967
G1Y24.365
G1X30.706
G1X30.657
G1X30.61Y24.349
G1X30.566Y24.33
G1X30.525Y24.304
G1X30.489Y24.272
G1X30.458Y24.234
G1X30.434Y24.192
G1X30.417Y24.147
G1Y24.1
G1Y24.064
G1Y17.009
G1Y16.961
G1X30.421Y16.914
G1X30.44Y16.869
G1X30.466Y16.828
G1X30.498Y16.792
G1X30.536Y16.761
G1X30.578Y16.738
G1X30.623Y16.72
G1X30.67
G1X30.706
G1X32.193
G1X32.424
G1X32.656Y16.722
G1X32.88Y16.74
G1X33.098Y16.764
G1X33.308Y16.795
G1X33.511Y16.834
G1X33.613Y16.856
G1X33.71Y16.88
G1X33.899Y16.934
G1X33.992Y16.964
G1X34.081Y16.995
G1X34.169Y17.028
G1X34.255Y17.063
G1X34.34Y17.101
G1X34.422Y17.14
G1X34.503Y17.181
G1X34.582Y17.224
G1X34.659Y17.27
G1X34.734Y17.317
G1X34.807Y17.366
G1X34.878Y17.417
G1X34.947Y17.47
G1X35.014Y17.525
G1X35.086Y17.589
G1X35.141Y17.641
G1X35.202Y17.703
G1X35.26Y17.765
G1X35.318Y17.832
G1X35.373Y17.898
G1X35.426Y17.968
G1X35.477Y18.04
G1X35.526Y18.114
G1X35.573Y18.188
G1X35.618Y18.266
G1X35.661Y18.345
G1X35.702Y18.426
G1X35.741Y18.51
G1X35.777Y18.595
G1X35.812Y18.681
G1X35.845Y18.77
G1X35.891Y18.907
G1X35.905Y18.891
G1X35.983Y18.813
G1X36.065Y18.738
G1X36.154Y18.666
G1X36.246Y18.597
G1X36.345Y18.532
G1X36.456Y18.466
G1X36.395Y18.325
G1X36.35Y18.229
G1X36.308Y18.148
G1X36.26Y18.062
G1X36.208Y17.973
G1X36.155Y17.89
G1X36.103Y17.813
G1X36.045Y17.734
G1X35.989Y17.663
G1X35.929Y17.591
G1X35.867Y17.522
G1X35.8Y17.452
G1X35.733Y17.386
G1X35.666Y17.325
G1X35.591Y17.26
G1X35.524Y17.206
G1X35.445Y17.147
G1X35.361Y17.088
G1X35.286Y17.039
G1X35.194Y16.981
G1X35.109Y16.933
G1X35.022Y16.886
G1X34.927Y16.838
G1X34.834Y16.795
G1X34.732Y16.75
G1X34.632Y16.709
G1X34.525Y16.669
G1X34.423Y16.634
G1X34.306Y16.596
G1X34.199Y16.564
G1X34.084Y16.533
G1X33.963Y16.503
G1X33.838Y16.474
G1X33.719Y16.45
G1X33.592Y16.426
G1X33.46Y16.404
G1X33.329Y16.385
G1X33.188Y16.366
G1X33.049Y16.351
G1X32.912Y16.338
G1X32.763Y16.326
G1X32.619
G1X32.47
G1X32.317
G1X31.998
G1X29.778
M05
G0X29.478Y16
M03
G1X32
G1X32.163
G1X32.323
G1X32.48
G1X32.635
G1X32.787
G1X32.936Y16.039
G1X33.082Y16.053
G1X33.226Y16.069
G1X33.367Y16.087
G1X33.506Y16.107
G1X33.641Y16.13
G1X33.774Y16.155
G1X33.904Y16.182
G1X34.032Y16.211
G1X34.157Y16.242
G1X34.279Y16.275
G1X34.398Y16.31
G1X34.515Y16.348
G1X34.629Y16.388
G1X34.74Y16.43
G1X34.849Y16.474
G1X34.955Y16.52
G1X35.058Y16.568
G1X35.159Y16.619
G1X35.256Y16.671
G1X35.351Y16.726
G1X35.444Y16.783
G1X35.533Y16.842
G1X35.62Y16.903
G1X35.705Y16.967
G1X35.786Y17.032
G1X35.865Y17.1
G1X35.941Y17.17
G1X36.015Y17.242
G1X36.087Y17.317
G1X36.156Y17.394
G1X36.222Y17.474
G1X36.286Y17.556
G1X36.348Y17.641
G1X36.407Y17.728
G1X36.464Y17.817
G1X36.519Y17.909
G1X36.571Y18.003
G1X36.62Y18.1
G1X36.668Y18.199
G1X36.712Y18.301
G1X36.755Y18.405
G1X36.795Y18.511
G1X36.828Y18.613
G1X36.699Y18.674
G1X36.602Y18.727
G1X36.51Y18.782
G1X36.424Y18.839
G1X36.342Y18.899
G1X36.266Y18.96
G1X36.195Y19.024
G1X36.129Y19.091
G1X36.067Y19.16
G1X36.01Y19.233
G1X35.957Y19.309
G1X35.908Y19.388
G1X35.863Y19.47
G1X35.822Y19.555
G1X35.786Y19.644
G1X35.759Y19.727
G1Y19.69
G1X35.737Y19.579
G1X35.717Y19.471
G1Y19.311
G1X35.688
G1X35.666Y19.217
G1X35.643Y19.128
G1X35.618Y19.041
G1X35.592Y18.957
G1X35.563Y18.874
G1X35.533Y18.793
G1X35.502Y18.713
G1X35.469Y18.636
G1X35.433Y18.561
G1X35.397Y18.488
G1X35.358Y18.416
G1X35.318Y18.347
G1X35.276Y18.279
G1X35.233Y18.213
G1X35.187Y18.15
G1X35.14Y18.088
G1X35.092Y18.028
G1X35.041Y17.97
G1X34.989Y17.914
G1X34.935Y17.86
G1X34.88Y17.807
G1X34.823Y17.757
G1X34.763Y17.708
G1X34.702Y17.66
G1X34.639Y17.615
G1X34.574Y17.57
G1X34.507Y17.528
G1X34.438Y17.487
G1X34.367Y17.448
G1X34.294Y17.411
G1X34.219Y17.375
G1X34.142Y17.341
G1X34.063Y17.309
G1X33.982Y17.278
G1X33.899Y17.249
G1X33.814Y17.222
G1X33.727Y17.196
G1X33.638Y17.172
G1X33.548Y17.149
G1X33.455Y17.128
G1X33.263Y17.092
G1X33.064Y17.062
G1X32.857Y17.039
G1X32.642Y17.022
G1X32.419
G1X32.188
G1X30.706
G1Y24.064
G1X31.267
G1Y25.073
G1X29.478
G1Y16
M05
G0X30.719Y17.401
M03
G1Y17.896
G1X31.278
G1Y17.839
G1X30.839
G1Y17.693
G1X31.26
G1Y17.637
G1X30.839
G1Y17.457
G1X31.289
G1Y17.401
G1X30.719
M05
G0X31.45Y17.423
M03
G1Y17.492
G1X31.522Y17.472
G1X31.593Y17.457
G1X31.662
G1X31.73
G1X31.821
G1X31.888Y17.468
G1X31.93Y17.495
G1X31.944Y17.532
G1Y17.565
G1X31.904Y17.589
G1X31.851Y17.607
G1X31.773Y17.62
G1X31.7
G1X31.585Y17.647
G1X31.506Y17.675
G1X31.461Y17.713
G1X31.447Y17.763
G1X31.467Y17.822
G1X31.529Y17.867
G1X31.627Y17.895
G1X31.757
G1X31.82
G1X31.884
G1X31.949
G1X32.016Y17.88
G1Y17.814
G1X31.95Y17.83
G1X31.887Y17.841
G1X31.828
G1X31.77
G1X31.684
G1X31.62Y17.829
G1X31.58Y17.803
G1X31.567Y17.769
G1Y17.74
G1X31.602Y17.719
G1X31.653Y17.704
G1X31.736Y17.692
G1X31.808
G1X31.924Y17.664
G1X32.005Y17.634
G1X32.053Y17.592
G1X32.069Y17.537
G1X32.047Y17.474
G1X31.983Y17.428
G1X31.877Y17.4
G1X31.73
G1X31.666
G1X31.597
G1X31.525
G1X31.45Y17.423
M05
G0X32.256Y17.401
M03
G1Y17.896
G1X32.815
G1Y17.839
G1X32.375
G1Y17.693
G1X32.796
G1Y17.637
G1X32.375
G1Y17.457
G1X32.825
G1Y17.401
G1X32.256
M05
G0X33.142Y17.665
M03
G1X33.292
G1X33.368
G1X33.423Y17.687
G1X33.456Y17.715
G1X33.467Y17.753
G1X33.456Y17.791
G1X33.423Y17.819
G1X33.368Y17.835
G1X33.292
G1X33.142
G1Y17.665
M05
G0X33.142Y17.61
M03
G1Y17.401
G1X33.022
G1Y17.896
G1X33.292
G1X33.424
G1X33.518Y17.86
G1X33.574Y17.816
G1X33.593Y17.753
G1Y17.71
G1X33.554Y17.676
G1X33.507Y17.65
G1X33.441Y17.633
G1X33.479Y17.621
G1X33.516Y17.602
G1X33.553Y17.573
G1X33.589Y17.536
G1X33.711Y17.401
G1X33.582
G1X33.469Y17.528
G1X33.426Y17.569
G1X33.384Y17.594
G1X33.336Y17.606
G1X33.272
G1X33.142
M05
G0X33.654Y17.839
M03
G1Y17.896
G1X34.402
G1Y17.839
G1X34.088
G1Y17.401
G1X33.968
G1Y17.839
G1X33.654
M05
G0X33.53Y18.169
M03
G1X33.552
G1X33.581
G1X33.611
G1X33.654
G1X34.402
G1X34.432
G1X34.463
G1X34.492
G1X34.521Y18.171
G1X34.548Y18.157
G1X34.574Y18.141
G1X34.598Y18.122
G1X34.621Y18.101
G1X34.64Y18.078
G1X34.674Y18.026
G1X34.724Y18.072
G1X34.819Y18.171
G1X34.904Y18.272
G1X34.948Y18.331
G1X34.982Y18.379
G1X35.026Y18.445
G1X35.063Y18.505
G1X35.133Y18.63
G1X35.166Y18.696
G1X35.193Y18.755
G1X35.253Y18.899
G1X35.293Y19.011
G1X31.267
G1X31.237
G1X31.206
G1X31.177
G1X31.148Y19.036
G1X31.121Y19.049
G1X31.095Y19.066
G1X31.071Y19.084
G1X31.048Y19.106
G1X31.029Y19.129
G1X31.006Y19.165
G1Y18.196
G1X31.278
G1X31.309
G1X31.339
G1X31.369
G1X31.397Y18.171
G1X31.435Y18.151
G1X31.544Y18.184
G1X31.574
G1X31.606
G1X31.735
G1X31.827
G1X31.906
G1X31.986
G1X32.063Y18.176
G1X32.093
G1X32.117
G1X32.154Y18.178
G1X32.183
G1X32.213
G1X32.256
G1X32.815
G1X32.845
G1X32.875
G1X32.92Y18.178
G1X32.949
G1X32.979
G1X33.022
G1X33.292
G1X33.444
G1X33.475
G1X33.53Y18.169
M05
G0X32.201Y19.797
M03
G1X35.417
G1Y19.611
G1X31.567
G1Y23.764
G1X31.901
G1Y23.386
G1Y23.338
G1X31.917Y23.291
G1X31.936Y23.246
G1X31.962Y23.206
G1X31.994Y23.169
G1X32.031Y23.139
G1X32.073Y23.115
G1X32.119Y23.098
G1X32.166
G1X32.201
G1X34.631
G1X34.725Y22.999
G1X34.773Y22.951
G1X34.822Y22.9
G1X32.201
G1X32.153
G1X32.106Y22.884
G1X32.062Y22.865
G1X32.021Y22.839
G1X31.985Y22.807
G1X31.954Y22.77
G1X31.93Y22.728
G1X31.913Y22.682
G1Y22.635
G1Y22.6
G1Y20.097
G1Y20.049
G1X31.917Y20.002
G1X31.936Y19.958
G1X31.962Y19.917
G1X31.994Y19.881
G1X32.031Y19.85
G1X32.073Y19.826
G1X32.119Y19.809
G1X32.166
G1X32.201
M05
G0X32.564Y20.186
M03
G1Y20.709
G1X32.208
G1Y20.777
G1X33.055
G1Y20.709
G1X32.701
G1Y20.186
G1X32.564
M05
G0X33.24Y20.354
M03
G1X33.207Y20.481
G1X33.24Y20.608
G1X33.337Y20.705
G1X33.492Y20.767
G1X33.696Y20.787
G1X33.783
G1X33.865Y20.773
G1X33.943Y20.756
G1X34.015Y20.731
G1Y20.647
G1X33.943Y20.68
G1X33.868Y20.703
G1X33.788Y20.717
G1X33.704
G1X33.552Y20.706
G1X33.44Y20.66
G1X33.372Y20.584
G1X33.349Y20.481
G1X33.372Y20.378
G1X33.44Y20.303
G1X33.552Y20.256
G1X33.704Y20.241
G1X33.788
G1X33.868Y20.259
G1X33.943Y20.282
G1X34.015Y20.315
G1Y20.231
G1X33.941Y20.207
G1X33.863Y20.189
G1X33.782Y20.178
G1X33.696
G1X33.492Y20.195
G1X33.337Y20.257
G1X33.24Y20.354
M05
G0X34.314Y20.186
M03
G1Y20.777
G1X34.451
G1Y20.535
G1X34.942
G1Y20.777
G1X35.079
G1Y20.186
G1X34.942
G1Y20.467
G1X34.451
G1Y20.186
G1X34.314
M05
G0X37.056Y20.171
M03
G1X37.805
G1Y20.114
G1X37.491
G1Y19.676
G1X37.371
G1Y20.114
G1X37.056
G1Y20.171
M05
G0X37.906Y20.171
M03
G1X38.027
G1Y19.87
G1X38.04Y19.802
G1X38.078Y19.755
G1X38.146Y19.729
G1X38.245
G1X38.344
G1X38.412Y19.755
G1X38.45Y19.802
G1X38.463Y19.87
G1Y20.171
G1X38.583
G1Y19.862
G1X38.562Y19.777
G1X38.498Y19.716
G1X38.392Y19.678
G1X38.245Y19.666
G1X38.098Y19.678
G1X37.992Y19.716
G1X37.928Y19.777
G1X37.906Y19.862
G1Y20.171
M05
G0X38.928Y20.116
M03
G1Y19.731
G1X39.072
G1X39.231Y19.742
G1X39.34Y19.777
G1X39.404Y19.837
G1X39.425Y19.924
G1X39.404Y20.01
G1X39.34Y20.069
G1X39.231Y20.104
G1X39.072Y20.116
G1X38.928
M05
G0X38.808Y20.171
M03
G1X39.054
G1X39.277Y20.156
G1X39.431Y20.111
G1X39.521Y20.034
G1X39.551Y19.924
G1X39.521Y19.813
G1X39.431Y19.736
G1X39.276Y19.691
G1X39.054Y19.676
G1X38.808
G1Y20.171
M05
G0X39.742Y20.171
M03
G1X39.862
G1Y19.676
G1X39.742
G1Y20.171
M05
G0X40.194Y20.007
M03
G1X40.175Y19.923
G1X40.194Y19.839
G1X40.252Y19.775
G1X40.342Y19.734
G1X40.459Y19.72
G1X40.575Y19.734
G1X40.665Y19.775
G1X40.722Y19.839
G1X40.741Y19.923
G1X40.722Y20.007
G1X40.665Y20.071
G1X40.575Y20.112
G1X40.459Y20.125
G1X40.342Y20.112
G1X40.252Y20.071
G1X40.194Y20.007
M05
G0X40.077Y20.028
M03
G1X40.161Y20.11
G1X40.291Y20.162
G1X40.459Y20.18
G1X40.626Y20.162
G1X40.756Y20.11
G1X40.84Y20.028
G1X40.867Y19.923
G1X40.84Y19.817
G1X40.756Y19.736
G1X40.626Y19.684
G1X40.459Y19.666
G1X40.291Y19.683
G1X40.161Y19.736
G1X40.077Y19.817
G1X40.049Y19.923
G1X40.077Y20.028
M05
G0X39.301Y18.781
M03
G1X39.427Y18.744
G1X39.548Y18.706
G1X39.666Y18.664
G1X39.775Y18.621
G1X39.88Y18.576
G1X39.981Y18.527
G1X40.073Y18.478
G1X40.163Y18.426
G1X40.245Y18.373
G1X40.325Y18.316
G1X40.399Y18.258
G1X40.467Y18.199
G1X40.531Y18.137
G1X40.591Y18.073
G1X40.646Y18.009
G1X40.699Y17.94
G1X40.745Y17.872
G1X40.791Y17.796
G1X40.83Y17.722
G1X40.867Y17.641
G1X40.9Y17.559
G1X40.929Y17.474
G1X40.955Y17.384
G1X40.975Y17.3
G1X40.994Y17.2
G1X41.008Y17.1
G1X41.018Y16.998
G1Y16.893
G1Y16.783
G1Y16.648
G1Y16.527
G1X41.001Y16.404
G1X40.982Y16.286
G1X40.958Y16.179
G1X40.929Y16.073
G1X40.894Y15.97
G1X40.855Y15.875
G1X40.81Y15.781
G1X40.761Y15.694
G1X40.708Y15.611
G1X40.647Y15.53
G1X40.582Y15.452
G1X40.513Y15.38
G1X40.438Y15.311
G1X40.353Y15.242
G1X40.271Y15.183
G1X40.173Y15.119
G1X40.077Y15.065
G1X39.973Y15.013
G1X39.864Y14.965
G1X39.743Y14.918
G1X39.622Y14.878
G1X39.496Y14.842
G1X39.36Y14.81
G1X39.215Y14.78
G1X39.075Y14.757
G1X38.914Y14.736
G1X38.755Y14.721
G1X38.591Y14.71
G1X38.417
G1X38.237
G1X38.101
G1X37.961
G1X37.817
G1X37.68Y14.731
G1X37.534Y14.749
G1X37.378Y14.771
G1X37.233Y14.795
G1X37.072Y14.825
G1X36.923Y14.857
G1X36.76Y14.895
G1X36.602Y14.936
G1X36.447Y14.978
G1X36.285Y15.027
G1X36.116Y15.081
G1X35.982Y15.126
G1Y15.544
G1X36.046Y15.513
G1X36.218Y15.437
G1X36.387Y15.366
G1X36.557Y15.301
G1X36.726Y15.242
G1X36.894Y15.189
G1X37.062Y15.142
G1X37.231Y15.101
G1X37.398Y15.067
G1X37.566Y15.038
G1X37.733Y15.016
G1X37.9Y15
G1X38.065Y14.99
G1X38.231
G1X38.356
G1X38.476
G1X38.592
G1X38.706Y15.011
G1X38.817Y15.025
G1X38.926Y15.042
G1X39.03Y15.062
G1X39.133Y15.086
G1X39.233Y15.114
G1X39.33Y15.144
G1X39.424Y15.178
G1X39.515Y15.217
G1X39.603Y15.259
G1X39.687Y15.303
G1X39.77Y15.353
G1X39.848Y15.406
G1X39.923Y15.463
G1X39.994Y15.523
G1X40.061Y15.587
G1X40.123Y15.655
G1X40.181Y15.727
G1X40.234Y15.801
G1X40.282Y15.879
G1X40.325Y15.96
G1X40.364Y16.044
G1X40.396Y16.13
G1X40.424Y16.22
G1X40.447Y16.311
G1X40.464Y16.404
G1X40.477Y16.499
G1Y16.596
G1Y16.695
G1Y16.781
G1Y16.864
G1Y16.947
G1X40.46Y17.027
G1X40.445Y17.106
G1X40.427Y17.183
G1X40.403Y17.26
G1X40.377Y17.333
G1X40.346Y17.406
G1X40.313Y17.476
G1X40.274Y17.545
G1X40.232Y17.61
G1X40.186Y17.674
G1X40.136Y17.734
G1X40.084Y17.791
G1X40.028Y17.846
G1X39.97Y17.897
G1X39.907Y17.948
G1X39.841Y17.995
G1X39.771Y18.04
G1X39.698Y18.083
G1X39.622Y18.123
G1X39.543Y18.162
G1X39.461Y18.198
G1X39.376Y18.233
G1X39.287Y18.265
G1X39.195Y18.296
G1X39.101Y18.326
G1X39.002Y18.353
G1X38.796Y18.404
G1X38.688Y18.427
G1X38.023Y18.556
G1X37.873Y18.588
G1X37.735Y18.62
G1X37.609Y18.652
G1X37.475Y18.69
G1X37.362Y18.725
G1X37.241Y18.766
G1X37.194Y18.784
G1X37.221Y18.886
G1X37.25Y19.012
G1X37.277Y19.139
G1X37.301Y19.266
G1X37.427Y19.217
G1X37.6Y19.16
G1X37.793Y19.106
G1X38.001Y19.056
G1X39.029Y18.847
G1X39.168Y18.815
G1X39.301Y18.781
M05
G0X40.54Y21.754
M03
G1X40.346Y21.831
G1X40.194Y21.887
G1X40.044Y21.938
G1X39.896Y21.983
G1X39.749Y22.024
G1X39.604Y22.061
G1X39.459Y22.093
G1X39.315Y22.119
G1X39.173Y22.142
G1X39.03Y22.159
G1X38.889Y22.171
G1X38.749
G1X38.609
G1X38.491
G1X38.376
G1X38.265
G1X38.156Y22.158
G1X38.05Y22.145
G1X37.946Y22.129
G1X37.845Y22.11
G1X37.747Y22.087
G1X37.651Y22.062
G1X37.558Y22.032
G1X37.468Y22
G1X37.381Y21.964
G1X37.283Y21.918
G1Y21.944
G1X37.253Y22.065
G1X37.223Y22.19
G1X37.204Y22.265
G1X37.268Y22.289
G1X37.385Y22.326
G1X37.501Y22.358
G1X37.628Y22.387
G1X37.762Y22.412
G1X37.891Y22.431
G1X38.032Y22.447
G1X38.179Y22.458
G1X38.321
G1X38.481
G1X38.618
G1X38.749
G1X38.892
G1X39.022Y22.443
G1X39.167Y22.428
G1X39.301Y22.412
G1X39.444Y22.392
G1X39.584Y22.369
G1X39.728Y22.343
G1X39.87Y22.313
G1X40.015Y22.281
G1X40.155Y22.246
G1X40.305Y22.206
G1X40.54Y22.137
G1Y21.754
M05
G0X40.131Y21.271
M03
G1X39.989Y21.323
G1X39.856Y21.368
G1X39.722Y21.409
G1X39.594Y21.445
G1X39.466Y21.477
G1X39.334Y21.506
G1X39.215Y21.528
G1X39.082Y21.548
G1X38.963Y21.563
G1X38.842
G1X38.726
G1X38.603
G1X38.501
G1X38.4
G1X38.308
G1X38.218
G1X38.133Y21.551
G1X38.04Y21.536
G1X37.965Y21.522
G1X37.89Y21.505
G1X37.815Y21.484
G1X37.743Y21.461
G1X37.678Y21.438
G1X37.616Y21.412
G1X37.56Y21.386
G1X37.502Y21.355
G1X37.451Y21.325
G1X37.403Y21.292
G1X37.354Y21.256
G1X37.32Y21.226
G1X37.252Y21.159
G1X37.228Y21.14
G1X37.202Y21.125
G1X37.174Y21.112
G1X37.145Y21.101
G1X37.115
G1X37.085
G1X37.054
G1X37.024
G1X36.994
G1X36.964
G1X36.936Y21.116
G1X36.909Y21.13
G1X36.883Y21.146
G1X36.859Y21.166
G1X36.838Y21.188
G1X36.818Y21.211
G1X36.801Y21.237
G1X36.787Y21.264
G1X36.776Y21.292
G1Y21.322
G1Y21.353
G1X36.748Y21.471
G1X36.731Y21.586
G1X36.711Y21.711
G1X36.69Y21.822
G1X36.665Y21.942
G1X36.641Y22.045
G1X36.611Y22.161
G1X36.582Y22.261
G1X36.556Y22.339
G1Y22.368
G1Y22.399
G1Y22.429
G1Y22.46
G1Y22.49
G1Y22.52
G1X36.564Y22.549
G1X36.578Y22.576
G1X36.594Y22.602
G1X36.612Y22.627
G1X36.633Y22.649
G1X36.656Y22.669
G1X36.681Y22.687
G1X36.711Y22.703
G1X36.813Y22.752
G1X36.93Y22.802
G1X37.066Y22.854
G1X37.207Y22.899
G1X37.352Y22.939
G1X37.5Y22.973
G1X37.653Y23.002
G1X37.81Y23.025
G1X37.97Y23.044
G1X38.135Y23.057
G1X38.303
G1X38.476
G1X38.626
G1X38.775
G1X38.925
G1X39.075Y23.041
G1X39.228Y23.026
G1X39.379Y23.007
G1X39.531Y22.986
G1X39.685Y22.961
G1X39.838Y22.933
G1X39.992Y22.901
G1X40.147Y22.866
G1X40.303Y22.828
G1X40.459Y22.786
G1X40.617Y22.741
G1X40.774Y22.694
G1X40.933Y22.642
G1X40.961Y22.631
G1X40.989Y22.617
G1X41.015Y22.601
G1X41.039Y22.582
G1X41.061Y22.561
G1X41.08Y22.537
G1X41.097Y22.512
G1X41.112Y22.485
G1X41.123Y22.456
G1Y22.427
G1Y22.397
G1Y22.357
G1Y21.293
G1Y21.262
G1Y21.232
G1Y21.202
G1X41.116Y21.174
G1X41.102Y21.146
G1X41.086Y21.12
G1X41.067Y21.096
G1X41.046Y21.074
G1X41.022Y21.054
G1X40.997Y21.037
G1X40.97Y21.022
G1X40.942Y21.01
G1X40.913
G1X40.883
G1X40.852
G1X40.822
G1X40.791
G1X40.761
G1X40.732
G1X40.56Y21.093
G1X40.419Y21.155
G1X40.275Y21.215
G1X40.131Y21.271
M05
G0X35.333Y25.73
M03
G1X32.201
G1X32.153
G1X32.106Y25.715
G1X32.062Y25.696
G1X32.021Y25.67
G1X31.985Y25.638
G1X31.954Y25.6
G1X31.93Y25.558
G1X31.913Y25.513
G1Y25.466
G1Y25.43
G1Y25.373
G1X31.567
G1Y25.917
G1X35.333
G1Y25.73
M05
G0X35.933Y25.43
M03
G1Y25.4
G1Y25.369
G1Y25.34
G1X35.909Y25.311
G1X35.895Y25.284
G1X35.879Y25.258
G1X35.86Y25.234
G1X35.839Y25.211
G1X35.815Y25.192
G1X35.79Y25.174
G1X35.763Y25.16
G1X35.735Y25.148
G1X35.706
G1X35.676
G1X35.633
G1X32.501
G1Y25.071
G1Y25.04
G1Y25.01
G1Y24.98
G1X32.477Y24.951
G1X32.463Y24.924
G1X32.447Y24.898
G1X32.428Y24.874
G1X32.407Y24.852
G1X32.384Y24.832
G1X32.358Y24.815
G1X32.331Y24.8
G1X32.303Y24.788
G1X32.274
G1X32.244
G1X32.213
G1X31.996
G1X31.567
G1Y24.364
G1X32.202
G1X32.232
G1X32.262
G1X32.292
G1X32.321Y24.339
G1X32.348Y24.326
G1X32.374Y24.309
G1X32.398Y24.291
G1X32.42Y24.269
G1X32.44Y24.246
G1X32.457Y24.221
G1X32.472Y24.194
G1X32.484Y24.166
G1Y24.136
G1Y24.106
G1Y24.064
G1Y23.686
G1X34.736
G1X34.767
G1X34.797
G1X34.826
G1X34.855Y23.661
G1X34.883Y23.648
G1X34.908Y23.631
G1X35.01Y23.551
G1X35.086Y23.484
G1X35.141Y23.432
G1X35.201Y23.372
G1X35.26Y23.309
G1X35.317Y23.244
G1X35.372Y23.177
G1X35.426Y23.108
G1X35.477Y23.037
G1X35.531Y22.956
G1X35.573Y22.889
G1X35.615Y22.817
G1X35.655Y22.743
G1X35.668Y22.715
G1X35.678Y22.686
G1Y22.656
G1Y22.626
G1Y22.596
G1Y22.565
G1Y22.535
G1Y22.505
G1X35.665Y22.477
G1X35.651Y22.449
G1X35.635Y22.424
G1X35.615Y22.4
G1X35.594Y22.378
G1X35.57Y22.359
G1X35.545Y22.342
G1X35.518Y22.327
G1X35.489Y22.316
G1X35.46
G1X35.43
G1X35.391
G1X32.501
G1Y21.077
G1X33.055
G1X33.086
G1X33.116
G1X33.146
G1X33.175Y21.052
G1X33.202Y21.039
G1X33.228Y21.022
G1X33.255Y21
G1X33.302Y21.021
G1X33.403Y21.053
G1X33.445Y21.063
G1X33.541Y21.078
G1X33.573
G1X33.681
G1X33.795
G1X33.902Y21.071
G1X33.932
G1X34.009Y21.048
G1X34.04
G1X34.125Y21.01
G1X34.157Y21.033
G1X34.184Y21.047
G1X34.212Y21.059
G1X34.242
G1X34.272
G1X34.314
G1X34.451
G1X34.482
G1X34.512
G1X34.542
G1X34.57Y21.052
G1X34.598Y21.039
G1X34.624Y21.022
G1X34.648Y21.003
G1X34.67Y20.982
G1X34.697Y20.949
G1X34.716Y20.973
G1X34.737Y20.996
G1X34.76Y21.015
G1X34.786Y21.033
G1X34.813Y21.047
G1X34.841Y21.059
G1X34.87
G1X34.9
G1X34.942
G1X35.079
G1X35.11
G1X35.14
G1X35.17
G1X35.198Y21.052
G1X35.226Y21.039
G1X35.252Y21.022
G1X35.276Y21.003
G1X35.298Y20.982
G1X35.318Y20.959
G1X35.335Y20.934
G1X35.35Y20.907
G1X35.362Y20.879
G1Y20.849
G1Y20.819
G1Y20.777
G1Y20.397
G1X35.676
G1X35.706
G1X35.736
G1X35.766
G1X35.795Y20.373
G1X35.822Y20.359
G1X35.848Y20.343
G1X35.872Y20.324
G1X35.894Y20.303
G1X35.914Y20.28
G1X35.931Y20.254
G1X35.946Y20.227
G1X35.958Y20.199
G1Y20.17
G1Y20.134
G1Y20.074
G1X35.993Y20.013
G1X36.009Y19.945
G1Y19.915
G1Y19.882
G1Y19.868
G1X36.038Y19.84
G1X36.068Y19.746
G1X36.097Y19.676
G1X36.13Y19.606
G1X36.168Y19.537
G1X36.207Y19.474
G1X36.25Y19.413
G1X36.296Y19.354
G1X36.35Y19.294
G1X36.401Y19.242
G1X36.46Y19.189
G1X36.527Y19.136
G1X36.594Y19.086
G1X36.644Y19.053
G1X36.665Y19.142
G1X36.69Y19.263
G1X36.711Y19.377
G1X36.73Y19.492
G1X36.748Y19.615
G1X36.766Y19.777
G1Y19.808
G1Y19.837
G1X36.79Y19.865
G1X36.804Y19.893
G1X36.825Y19.924
G1X36.801Y19.958
G1X36.786Y19.984
G1X36.774Y20.012
G1Y20.042
G1Y20.072
G1Y20.114
G1Y20.171
G1Y20.201
G1Y20.231
G1Y20.261
G1X36.781Y20.29
G1X36.795Y20.317
G1X36.811Y20.343
G1X36.83Y20.367
G1X36.851Y20.389
G1X36.874Y20.409
G1X36.9Y20.427
G1X36.927Y20.441
G1X36.955Y20.453
G1X36.984
G1X37.014
G1X37.056
G1X37.805
G1X37.835
G1X37.855
G1X37.906
G1X38.027
G1X38.057
G1X38.088
G1X38.117
G1X38.146Y20.446
G1X38.173Y20.432
G1X38.199Y20.416
G1X38.223Y20.397
G1X38.245Y20.376
G1X38.258Y20.389
G1X38.281Y20.409
G1X38.307Y20.427
G1X38.333Y20.441
G1X38.362Y20.453
G1X38.391
G1X38.421
G1X38.463
G1X38.583
G1X38.614
G1X38.644
G1X38.674
G1X38.696
G1X38.735Y20.462
G1X38.765
G1X38.808
G1X39.054
G1X39.183
G1X39.309Y20.454
G1X39.341
G1X39.427Y20.43
G1X39.469Y20.417
G1X39.539Y20.391
G1X39.56Y20.409
G1X39.585Y20.427
G1X39.612Y20.441
G1X39.64Y20.453
G1X39.669
G1X39.699
G1X39.742
G1X39.862
G1X39.892
G1X39.922
G1X39.952
G1X39.981Y20.446
G1X40.008Y20.432
G1X40.034Y20.416
G1X40.062Y20.394
G1X40.18Y20.441
G1X40.208
G1X40.238
G1X40.427Y20.478
G1X40.458
G1X40.49
G1X40.657Y20.46
G1X40.688
G1X40.717
G1X40.868Y20.388
G1X40.896Y20.375
G1X40.922Y20.36
G1X41.012Y20.289
G1X41.041Y20.258
G1X41.075Y20.214
G1X41.093Y20.189
G1X41.108Y20.162
G1X41.147Y20.066
G1Y20.036
G1X41.167Y19.929
G1Y19.886
G1Y19.831
G1Y19.8
G1Y19.771
G1X41.103Y19.673
G1X41.087Y19.647
G1X41.04Y19.587
G1X41.02Y19.564
G1X40.989Y19.537
G1X40.94Y19.499
G1X40.915Y19.481
G1X40.888Y19.466
G1X40.738Y19.405
G1X40.709
G1X40.679
G1X40.49Y19.368
G1X40.459
G1X40.427
G1X40.26Y19.385
G1X40.229
G1X40.2
G1X40.061Y19.452
G1X40.044Y19.437
G1X40.018Y19.42
G1X39.991Y19.405
G1X39.963Y19.394
G1X39.934
G1X39.904
G1X39.862
G1X39.742
G1X39.711
G1X39.681
G1X39.652
G1X39.623Y19.4
G1X39.595Y19.414
G1X39.57Y19.43
G1X39.538Y19.456
G1X39.469Y19.429
G1X39.426Y19.417
G1X39.323Y19.395
G1X39.455Y19.361
G1X39.598Y19.32
G1X39.736Y19.276
G1X39.87Y19.228
G1X39.999Y19.178
G1X40.124Y19.124
G1X40.244Y19.066
G1X40.36Y19.006
G1X40.47Y18.941
G1X40.576Y18.874
G1X40.678Y18.802
G1X40.774Y18.727
G1X40.865Y18.647
G1X40.952Y18.564
G1X41.031Y18.481
G1X41.108Y18.392
G1X41.18Y18.298
G1X41.247Y18.2
G1X41.308Y18.1
G1X41.364Y17.996
G1X41.414Y17.888
G1X41.459Y17.778
G1X41.499Y17.664
G1X41.533Y17.546
G1X41.561Y17.427
G1X41.585Y17.304
G1X41.603Y17.179
G1X41.616Y17.052
G1Y16.921
G1Y16.788
G1Y16.632
G1X41.614Y16.479
G1X41.597Y16.329
G1X41.573Y16.183
G1X41.542Y16.041
G1X41.505Y15.903
G1X41.46Y15.769
G1X41.407Y15.639
G1X41.347Y15.513
G1X41.281Y15.393
G1X41.206Y15.276
G1X41.124Y15.164
G1X41.035Y15.059
G1X40.939Y14.958
G1X40.836Y14.863
G1X40.728Y14.773
G1X40.614Y14.69
G1X40.493Y14.611
G1X40.366Y14.539
G1X40.235Y14.473
G1X40.097Y14.412
G1X39.955Y14.357
G1X39.807Y14.307
G1X39.653Y14.263
G1X39.495Y14.225
G1X39.331Y14.192
G1X39.163Y14.164
G1X38.989Y14.141
G1X38.81Y14.123
G1X38.625Y14.111
G1X38.436
G1X38.241
G1X38.089
G1X37.934
G1X37.776Y14.12
G1X37.618Y14.135
G1X37.456Y14.154
G1X37.293Y14.177
G1X37.128Y14.204
G1X36.961Y14.235
G1X36.792Y14.271
G1X36.624Y14.311
G1X36.453Y14.354
G1X36.281Y14.402
G1X36.108Y14.454
G1X35.934Y14.509
G1X35.758Y14.568
G1X35.581Y14.631
G1X35.553Y14.643
G1X35.526Y14.658
G1X35.501Y14.675
G1X35.477Y14.695
G1X35.456Y14.717
G1X35.437Y14.741
G1X35.421Y14.767
G1X35.407Y14.794
G1X35.396Y14.823
G1Y14.852
G1Y14.883
G1Y14.914
G1Y16.037
G1Y16.068
G1Y16.098
G1Y16.128
G1X35.407Y16.156
G1X35.42Y16.184
G1X35.437Y16.21
G1X35.456Y16.234
G1X35.477Y16.256
G1X35.5Y16.276
G1X35.525Y16.293
G1X35.552Y16.308
G1X35.58Y16.32
G1X35.61
G1X35.64
G1X35.67
G1X35.701
G1X35.731
G1X35.761
G1X35.79
G1X35.826Y16.301
G1X35.985Y16.214
G1X36.15Y16.129
G1X36.302Y16.056
G1X36.455Y15.988
G1X36.617Y15.92
G1X36.762Y15.865
G1X36.919Y15.811
G1X37.074Y15.762
G1X37.218Y15.721
G1X37.368Y15.685
G1X37.509Y15.656
G1X37.664Y15.63
G1X37.808Y15.611
G1X37.946Y15.598
G1X38.093
G1X38.239
G1X38.346
G1X38.451
G1X38.549
G1X38.642
G1X38.737Y15.619
G1X38.825Y15.634
G1X38.912Y15.65
G1X38.991Y15.669
G1X39.066Y15.689
G1X39.136Y15.712
G1X39.213Y15.74
G1X39.276Y15.767
G1X39.339Y15.797
G1X39.396Y15.827
G1X39.453Y15.862
G1X39.502Y15.896
G1X39.55Y15.933
G1X39.595Y15.971
G1X39.637Y16.012
G1X39.673Y16.052
G1X39.707Y16.095
G1X39.736Y16.135
G1X39.765Y16.183
G1X39.79Y16.23
G1X39.812Y16.28
G1X39.83Y16.328
G1X39.847Y16.385
G1X39.862Y16.445
G1X39.873Y16.504
G1Y16.564
G1Y16.636
G1Y16.696
G1Y16.764
G1Y16.823
G1Y16.879
G1Y16.931
G1Y16.98
G1X39.846Y17.032
G1X39.833Y17.074
G1X39.817Y17.119
G1X39.798Y17.162
G1X39.779Y17.201
G1X39.756Y17.241
G1X39.733Y17.276
G1X39.708Y17.311
G1X39.681Y17.343
G1X39.648Y17.379
G1X39.618Y17.409
G1X39.581Y17.441
G1X39.543Y17.47
G1X39.499Y17.502
G1X39.45Y17.533
G1X39.406Y17.559
G1X39.345Y17.591
G1X39.29Y17.618
G1X39.223Y17.647
G1X39.155Y17.675
G1X39.012Y17.725
G1X38.927Y17.751
G1X38.842Y17.775
G1X38.758Y17.796
G1X38.563Y17.84
G1X37.904Y17.968
G1X37.75Y18
G1X37.599Y18.035
G1X37.453Y18.073
G1X37.312Y18.113
G1X37.176Y18.155
G1X37.044Y18.2
G1X37.002Y18.216
G1X36.942Y18.078
G1X36.891Y17.971
G1X36.838Y17.866
G1X36.781Y17.764
G1X36.723Y17.664
G1X36.661Y17.567
G1X36.596Y17.472
G1X36.529Y17.379
G1X36.458Y17.289
G1X36.385Y17.202
G1X36.311Y17.118
G1X36.232Y17.035
G1X36.151Y16.956
G1X36.068Y16.879
G1X35.982Y16.805
G1X35.892Y16.733
G1X35.801Y16.664
G1X35.706Y16.597
G1X35.609Y16.533
G1X35.509Y16.471
G1X35.406Y16.411
G1X35.301Y16.355
G1X35.192Y16.3
G1X35.082Y16.248
G1X34.969Y16.199
G1X34.853Y16.152
G1X34.735Y16.107
G1X34.614Y16.065
G1X34.49Y16.025
G1X34.364Y15.988
G1X34.236Y15.952
G1X34.105Y15.919
G1X33.97Y15.889
G1X33.835Y15.861
G1X33.696Y15.835
G1X33.555Y15.812
G1X33.411Y15.79
G1X33.265Y15.771
G1X33.116Y15.755
G1X32.964Y15.74
G1X32.811Y15.728
G1X32.654
G1X32.495
G1X32.333
G1X32.169
G1X32.002
G1X29.478
G1X29.448
G1X29.417
G1X29.388
G1X29.359Y15.725
G1X29.332Y15.738
G1X29.306Y15.755
G1X29.281Y15.773
G1X29.259Y15.795
G1X29.24Y15.818
G1X29.222Y15.843
G1X29.208Y15.87
G1X29.196Y15.898
G1Y15.927
G1Y15.958
G1Y16
G1Y25.073
G1Y25.104
G1Y25.134
G1Y25.164
G1X29.203Y25.192
G1X29.216Y25.22
G1X29.233Y25.246
G1X29.251Y25.27
G1X29.273Y25.292
G1X29.296Y25.312
G1X29.321Y25.329
G1X29.348Y25.344
G1X29.376Y25.355
G1X29.406
G1X29.436
G1X29.478
G1X30.967
G1Y26.217
G1Y26.247
G1Y26.277
G1Y26.307
G1X30.992Y26.336
G1X31.005Y26.363
G1X31.022Y26.389
G1X31.041Y26.413
G1X31.062Y26.435
G1X31.085Y26.455
G1X31.11Y26.472
G1X31.137Y26.487
G1X31.165Y26.499
G1X31.195
G1X31.225
G1X31.267
G1X35.633
G1X35.664
G1X35.694
G1X35.724
G1X35.752Y26.492
G1X35.78Y26.478
G1X35.806Y26.462
G1X35.83Y26.443
G1X35.852Y26.422
G1X35.872Y26.399
G1X35.889Y26.373
G1X35.904Y26.346
G1X35.916Y26.318
G1Y26.289
G1Y26.259
G1Y26.217
G1Y25.43
M05
G0X37.664Y27.419
M03
G1X37.296Y27.543
G1X36.92Y27.65
G1X36.542Y27.737
G1X36.148Y27.807
G1X35.754Y27.857
G1X35.353Y27.887
G1X34.947Y27.898
G1X34.541Y27.887
G1X34.14Y27.857
G1X33.746Y27.807
G1X33.351Y27.737
G1X32.973Y27.65
G1X32.598Y27.543
G1X32.23Y27.419
G1X31.875Y27.279
G1X31.52Y27.119
G1X31.181Y26.946
G1X30.853Y26.757
G1X30.533Y26.552
G1X30.218Y26.328
G1X29.922Y26.096
G1X29.636Y25.849
G1X29.364Y25.59
G1X29.097Y25.311
G1X28.854Y25.03
G1X28.617Y24.729
G1X28.397Y24.42
G1X28.191Y24.1
G1X28.001Y23.769
G1X27.828Y23.432
G1X27.668Y23.079
G1X27.527Y22.721
G1X27.403Y22.356
G1X27.297Y21.981
G1X27.209Y21.604
G1X27.139Y21.21
G1X27.089Y20.817
G1X27.058Y20.415
G1Y20.009
G1X27.058Y19.606
G1X27.089Y19.204
G1X27.139Y18.811
G1X27.21Y18.416
G1X27.297Y18.041
G1X27.403Y17.666
G1X27.528Y17.299
G1X27.669Y16.941
G1X27.828Y16.59
G1X28.001Y16.253
G1X28.191Y15.922
G1X28.397Y15.603
G1X28.617Y15.293
G1X28.854Y14.992
G1X29.097Y14.711
G1X29.364Y14.432
G1X29.633Y14.176
G1X29.923Y13.925
G1X30.221Y13.691
G1X30.533Y13.469
G1X30.853Y13.265
G1X31.181Y13.076
G1X31.52Y12.903
G1X31.875Y12.743
G1X32.23Y12.603
G1X32.598Y12.479
G1X32.973Y12.373
G1X33.351Y12.285
G1X33.745Y12.215
G1X34.14Y12.165
G1X34.541Y12.135
G1X34.947Y12.124
G1X35.353Y12.135
G1X35.753Y12.165
G1X36.149Y12.215
G1X36.542Y12.285
G1X36.921Y12.373
G1X37.296Y12.479
G1X37.664Y12.603
G1X38.019Y12.743
G1X38.374Y12.903
G1X38.713Y13.076
G1X39.041Y13.265
G1X39.361Y13.469
G1X39.672Y13.691
G1X39.971Y13.925
G1X40.26Y14.176
G1X40.53Y14.432
G1X40.797Y14.711
G1X41.04Y14.992
G1X41.277Y15.293
G1X41.497Y15.603
G1X41.702Y15.922
G1X41.893Y16.253
G1X42.066Y16.59
G1X42.225Y16.941
G1X42.366Y17.299
G1X42.491Y17.666
G1X42.597Y18.041
G1X42.684Y18.416
G1X42.755Y18.811
G1X42.805Y19.204
G1X42.835Y19.606
G1X42.846Y20.009
G1X42.835Y20.415
G1X42.805Y20.817
G1X42.755Y21.21
G1X42.684Y21.604
G1X42.597Y21.981
G1X42.491Y22.356
G1X42.367Y22.721
G1X42.225Y23.079
G1X42.066Y23.432
G1X41.893Y23.769
G1X41.702Y24.1
G1X41.497Y24.42
G1X41.277Y24.729
G1X41.04Y25.03
G1X40.797Y25.311
G1X40.53Y25.59
G1X40.258Y25.849
G1X39.972Y26.096
G1X39.676Y26.328
G1X39.361Y26.552
G1X39.041Y26.757
G1X38.713Y26.946
G1X38.374Y27.119
G1X38.019Y27.279
G1X37.664Y27.419
M05
G0X38.138Y27.554
M03
G1X37.385Y27.83
G1X36.599Y28.031
G1X35.785Y28.155
G1X34.947Y28.198
G1X34.109Y28.155
G1X33.295Y28.031
G1X32.509Y27.83
G1X31.756Y27.554
G1X31.039Y27.21
G1X30.363Y26.8
G1X29.732Y26.328
G1X29.15Y25.8
G1X28.62Y25.219
G1X28.148Y24.588
G1X27.738Y23.913
G1X27.392Y23.198
G1X27.117Y22.445
G1X26.915Y21.661
G1X26.79Y20.848
G1X26.748Y20.011
G1X26.79Y19.174
G1X26.915Y18.361
G1X27.117Y17.577
G1X27.392Y16.824
G1X27.738Y16.109
G1X28.148Y15.434
G1X28.62Y14.803
G1X29.15Y14.222
G1X29.732Y13.694
G1X30.363Y13.222
G1X31.039Y12.812
G1X31.756Y12.468
G1X32.509Y12.192
G1X33.295Y11.991
G1X34.109Y11.867
G1X34.947Y11.824
G1X35.785Y11.867
G1X36.599Y11.991
G1X37.385Y12.192
G1X38.138Y12.468
G1X38.855Y12.812
G1X39.531Y13.222
G1X40.162Y13.694
G1X40.744Y14.222
G1X41.273Y14.803
G1X41.745Y15.434
G1X42.156Y16.109
G1X42.501Y16.824
G1X42.777Y17.577
G1X42.979Y18.361
G1X43.103Y19.174
G1X43.146Y20.011
G1X43.103Y20.848
G1X42.979Y21.661
G1X42.777Y22.445
G1X42.501Y23.198
G1X42.156Y23.913
G1X41.745Y24.588
G1X41.273Y25.219
G1X40.744Y25.8
G1X40.162Y26.328
G1X39.531Y26.8
G1X38.855Y27.21
G1X38.138Y27.554
M05
G0X38.262Y27.828
M03
G1X37.876Y27.98
G1X37.481Y28.114
G1X37.078Y28.229
G1X36.667Y28.324
G1X36.248Y28.399
G1X35.823Y28.453
G1X35.392Y28.486
G1X34.955Y28.498
G1X34.517Y28.487
G1X34.086Y28.455
G1X33.661Y28.401
G1X33.242Y28.327
G1X32.831Y28.232
G1X32.427Y28.118
G1X32.032Y27.985
G1X31.646Y27.833
G1X31.269Y27.664
G1X30.902Y27.477
G1X30.546Y27.272
G1X30.201Y27.052
G1X29.868Y26.816
G1X29.547Y26.564
G1X29.238Y26.298
G1X28.943Y26.017
G1X28.661Y25.723
G1X28.394Y25.415
G1X28.141Y25.095
G1X27.904Y24.762
G1X27.683Y24.418
G1X27.478Y24.063
G1X27.29Y23.697
G1X27.119Y23.322
G1X26.967Y22.936
G1X26.833Y22.542
G1X26.718Y22.139
G1X26.623Y21.729
G1X26.547Y21.311
G1X26.493Y20.886
G1X26.46Y20.455
G1X26.448Y20.019
G1X26.459Y19.582
G1X26.491Y19.151
G1X26.545Y18.726
G1X26.619Y18.308
G1X26.714Y17.897
G1X26.828Y17.494
G1X26.961Y17.1
G1X27.114Y16.714
G1X27.283Y16.338
G1X27.471Y15.972
G1X27.675Y15.616
G1X27.896Y15.272
G1X28.133Y14.939
G1X28.385Y14.618
G1X28.651Y14.31
G1X28.932Y14.015
G1X29.228Y13.734
G1X29.535Y13.467
G1X29.856Y13.215
G1X30.189Y12.978
G1X30.534Y12.757
G1X30.889Y12.552
G1X31.256Y12.365
G1X31.632Y12.194
G1X32.018Y12.042
G1X32.413Y11.908
G1X32.816Y11.793
G1X33.227Y11.698
G1X33.646Y11.623
G1X34.071Y11.569
G1X34.502Y11.536
G1X34.939Y11.524
G1X35.376Y11.535
G1X35.808Y11.567
G1X36.233Y11.621
G1X36.652Y11.695
G1X37.063Y11.79
G1X37.467Y11.904
G1X37.862Y12.037
G1X38.248Y12.188
G1X38.625Y12.358
G1X38.991Y12.545
G1X39.348Y12.75
G1X39.693Y12.97
G1X40.026Y13.206
G1X40.347Y13.458
G1X40.656Y13.724
G1X40.951Y14.005
G1X41.233Y14.299
G1X41.5Y14.607
G1X41.753Y14.927
G1X41.99Y15.26
G1X42.211Y15.604
G1X42.416Y15.959
G1X42.604Y16.325
G1X42.775Y16.701
G1X42.927Y17.086
G1X43.061Y17.48
G1X43.176Y17.883
G1X43.271Y18.293
G1X43.347Y18.711
G1X43.401Y19.136
G1X43.434Y19.567
G1X43.446Y20.003
G1X43.435Y20.44
G1X43.402Y20.871
G1X43.349Y21.296
G1X43.274Y21.714
G1X43.18Y22.125
G1X43.066Y22.528
G1X42.932Y22.922
G1X42.78Y23.308
G1X42.611Y23.684
G1X42.423Y24.05
G1X42.219Y24.406
G1X41.998Y24.75
G1X41.761Y25.083
G1X41.509Y25.404
G1X41.242Y25.712
G1X40.961Y26.007
G1X40.666Y26.288
G1X40.358Y26.555
G1X40.037Y26.807
G1X39.705Y27.044
G1X39.36Y27.265
G1X39.004Y27.47
G1X38.638Y27.657
G1X38.262Y27.828
; Cut @ 100 mm/sec, 20% power
M05
G0X38.48Y22.767
; Layer C16
M03
G1X38.317
G1X38.158
G1X38.004Y22.746
G1X37.854Y22.729
G1X37.708Y22.707
G1X37.567Y22.681
G1X37.431Y22.649
G1X37.298Y22.613
G1X37.171Y22.572
G1X37.047Y22.527
G1X36.943Y22.482
G1X36.841Y22.433
G1X36.869Y22.35
G1X36.901Y22.237
G1X36.931Y22.122
G1X36.959Y22.004
G1X36.984Y21.883
G1X37.007Y21.76
G1X37.028Y21.635
G1X37.045Y21.513
G1X37.06Y21.389
G1X37.114Y21.445
G1X37.169Y21.491
G1X37.227Y21.536
G1X37.289Y21.578
G1X37.355Y21.617
G1X37.423Y21.653
G1X37.495Y21.687
G1X37.57Y21.718
G1X37.649Y21.746
G1X37.73Y21.772
G1X37.814Y21.795
G1X37.902Y21.815
G1X37.993Y21.833
G1X38.087Y21.848
G1X38.184Y21.86
G1X38.284
G1X38.388
G1X38.494
G1X38.604
G1X38.733
G1X38.863
G1X38.994Y21.861
G1X39.127Y21.845
G1X39.26Y21.824
G1X39.395Y21.799
G1X39.531Y21.77
G1X39.668Y21.736
G1X39.807Y21.697
G1X39.948Y21.653
G1X40.091Y21.605
G1X40.237Y21.552
G1X40.384Y21.494
G1X40.534Y21.432
G1X40.686Y21.365
G1X40.84Y21.293
G1Y22.357
G1X40.687Y22.406
G1X40.534Y22.453
G1X40.382Y22.496
G1X40.231Y22.536
G1X40.081Y22.573
G1X39.932Y22.607
G1X39.783Y22.637
G1X39.636Y22.665
G1X39.489Y22.689
G1X39.343Y22.71
G1X39.197Y22.727
G1X39.053Y22.742
G1X38.908Y22.753
G1X38.765
G1X38.622
G1X38.48
M05
G0X37.064Y19.743
M03
G1X37.045Y19.579
G1X37.027Y19.451
G1X37.007Y19.325
G1X36.984Y19.201
G1X36.958Y19.08
G1X36.93Y18.962
G1X36.9Y18.845
G1X36.867Y18.732
G1X36.828Y18.613
G1X36.91Y18.575
G1X37.023Y18.528
G1X37.141Y18.484
G1X37.265Y18.441
G1X37.393Y18.401
G1X37.528Y18.363
G1X37.667Y18.328
G1X37.812Y18.294
G1X37.961Y18.263
G1X38.626Y18.133
G1X38.728Y18.111
G1X38.826Y18.088
G1X38.921Y18.064
G1X39.012Y18.039
G1X39.1Y18.012
G1X39.184Y17.984
G1X39.264Y17.954
G1X39.34Y17.924
G1X39.413Y17.892
G1X39.482Y17.858
G1X39.547Y17.824
G1X39.609Y17.788
G1X39.667Y17.75
G1X39.722Y17.712
G1X39.772Y17.672
G1X39.82Y17.631
G1X39.864Y17.588
G1X39.906Y17.543
G1X39.944Y17.496
G1X39.98Y17.447
G1X40.013Y17.396
G1X40.043Y17.343
G1X40.071Y17.288
G1X40.095Y17.231
G1X40.117Y17.172
G1X40.135Y17.111
G1X40.151Y17.048
G1X40.164Y16.982
G1Y16.915
G1Y16.846
G1Y16.775
G1Y16.702
G1Y16.618
G1Y16.536
G1Y16.457
G1X40.155Y16.381
G1X40.137Y16.307
G1X40.115Y16.235
G1X40.09Y16.166
G1X40.06Y16.099
G1X40.026Y16.035
G1X39.989Y15.973
G1X39.947Y15.914
G1X39.901Y15.857
G1X39.852Y15.802
G1X39.798Y15.75
G1X39.741Y15.701
G1X39.679Y15.654
G1X39.614Y15.609
G1X39.546Y15.568
G1X39.474Y15.529
G1X39.399Y15.493
G1X39.32Y15.46
G1X39.238Y15.43
G1X39.153Y15.403
G1X39.065Y15.378
G1X38.973Y15.357
G1X38.878Y15.338
G1X38.779Y15.322
G1X38.677Y15.309
G1X38.572
G1X38.464
G1X38.352
G1X38.237
G1X38.083
G1X37.928
G1X37.772Y15.313
G1X37.616Y15.334
G1X37.459Y15.36
G1X37.301Y15.393
G1X37.143Y15.431
G1X36.984Y15.476
G1X36.824Y15.526
G1X36.663Y15.582
G1X36.502Y15.643
G1X36.34Y15.71
G1X36.177Y15.784
G1X36.013Y15.862
G1X35.848Y15.947
G1X35.682Y16.037
G1Y14.914
G1X35.854Y14.852
G1X36.025Y14.795
G1X36.194Y14.741
G1X36.361Y14.691
G1X36.527Y14.645
G1X36.692Y14.603
G1X36.855Y14.565
G1X37.016Y14.53
G1X37.177Y14.5
G1X37.336Y14.474
G1X37.492Y14.451
G1X37.646Y14.433
G1X37.797Y14.419
G1X37.946Y14.409
G1X38.093
G1X38.237
G1X38.424
G1X38.605
G1X38.78Y14.422
G1X38.95Y14.439
G1X39.114Y14.46
G1X39.272Y14.486
G1X39.424Y14.516
G1X39.571Y14.552
G1X39.712Y14.592
G1X39.847Y14.637
G1X39.977Y14.687
G1X40.1Y14.741
G1X40.218Y14.8
G1X40.331Y14.864
G1X40.437Y14.932
G1X40.538Y15.006
G1X40.633Y15.083
G1X40.723Y15.166
G1X40.806Y15.252
G1X40.883Y15.344
G1X40.954Y15.439
G1X41.018Y15.539
G1X41.077Y15.643
G1X41.129Y15.752
G1X41.176Y15.866
G1X41.216Y15.983
G1X41.25Y16.105
G1X41.277Y16.232
G1X41.299Y16.363
G1X41.314Y16.498
G1Y16.638
G1Y16.783
G1Y16.904
G1Y17.022
G1X41.306Y17.137
G1X41.29Y17.249
G1X41.27Y17.358
G1X41.244Y17.464
G1X41.215Y17.566
G1X41.181Y17.666
G1X41.142Y17.762
G1X41.099Y17.855
G1X41.051Y17.945
G1X40.998Y18.032
G1X40.941Y18.116
G1X40.88Y18.197
G1X40.814Y18.275
G1X40.743Y18.349
G1X40.668Y18.421
G1X40.589Y18.491
G1X40.504Y18.557
G1X40.414Y18.621
G1X40.319Y18.682
G1X40.219Y18.74
G1X40.114Y18.796
G1X40.005Y18.849
G1X39.89Y18.899
G1X39.77Y18.946
G1X39.645Y18.99
G1X39.515Y19.032
G1X39.38Y19.07
G1X39.24Y19.106
G1X39.095Y19.14
G1X38.07Y19.348
G1X37.873Y19.395
G1X37.694Y19.445
G1X37.532Y19.498
G1X37.458Y19.526
G1X37.388Y19.554
G1X37.323Y19.584
G1X37.263Y19.614
G1X37.207Y19.645
G1X37.155Y19.677
G1X37.108Y19.709
G1X37.064Y19.743
; Cut @ 100 mm/sec, 20% power
M05
G0X35.717Y19.877
; Layer C27
M03
G1X35.699Y19.952
G1X35.684Y20.03
G1Y20.097
G1X32.201
G1Y22.6
G1X35.391
G1X35.355Y22.666
G1X35.318Y22.73
G1X35.276Y22.797
G1X35.233Y22.862
G1X35.187Y22.926
G1X35.14Y22.987
G1X35.092Y23.047
G1X35.041Y23.104
G1X34.989Y23.16
G1X34.935Y23.214
G1X34.88Y23.266
G1X34.823Y23.317
G1X34.736Y23.386
G1X32.201
G1Y24.064
G1X31.267
G1Y19.311
G1X35.688
G1X35.717Y19.471
G1Y19.877
M05
G0X35.633Y25.43
M03
G1Y26.217
G1X31.267
G1Y25.073
G1X32
G1X32.201
G1Y25.43
G1X35.633
M05
G1 S0
G90
; return to user-defined finish pos
G0 X0 Y0
M2
