; LightBurn 1.4.03
; CanCam device profile, absolute coords
; Bounds: X23.95 Y11.56 to X45.94 Y28.46
G00 G17 G40 G21 G54
G90
; Scan @ 100 mm/sec, 20% power
M05
G0X31.674Y11.561
; Layer C00
G91
M05
G1X2.5F6000
M03
G1X1.548
M05
G1X2.5
G1X0.736Y0.1
G1X-2.5
M03
G1X-3.022
M05
G1X-2.5
G1X-0.479Y0.1
G1X2.5
M03
G1X3.981
M05
G1X2.5
G1X0.377Y0.1
G1X-2.5
M03
G1X-1.64
M05
G1X-1.456
M03
G1X-1.64
M05
G1X-2.5
G1X-0.322Y0.1
G1X2.5
M03
G1X1.232
M05
G1X2.916
M03
G1X1.232
M05
G1X2.5
G1X0.286Y0.1
G1X-2.5
M03
G1X-1.05
M05
G1X-3.853
M03
G1X-1.05
M05
G1X-2.5
G1X-0.254Y0.1
G1X2.5
M03
G1X0.915
M05
G1X1.56
M03
G1X1.512
M05
G1X1.56
M03
G1X0.915
M05
G1X2.5
G1X0.231Y0.1
G1X-2.5
M03
G1X-0.836
M05
G1X-1.167
M03
G1X-2.918
M05
G1X-1.167
M03
G1X-0.837
M05
G1X-2.5
G1X-0.22Y0.1
G1X2.5
M03
G1X0.783
M05
G1X0.976
M03
G1X3.847
M05
G1X0.976
M03
G1X0.785
M05
G1X2.5
G1X0.196Y0.1
G1X-2.5
M03
G1X-0.707
M05
G1X-0.887
M03
G1X-4.572
M05
G1X-0.887
M03
G1X-0.706
M05
G1X-2.5
G1X-0.194Y0.1
G1X2.5
M03
G1X0.688
M05
G1X0.793
M03
G1X5.184
M05
G1X0.793
M03
G1X0.687
M05
G1X2.5
G1X0.174Y0.1
G1X-2.5
M03
G1X-0.653
M05
G1X-0.729
M03
G1X-5.728
M05
G1X-0.729
M03
G1X-0.654
M05
G1X-2.5
G1X-0.173Y0.1
G1X2.5
M03
G1X0.619
M05
G1X0.689
M03
G1X6.224
M05
G1X0.689
M03
G1X0.618
M05
G1X2.5
G1X0.156Y0.1
G1X-2.5
M03
G1X-0.587
M05
G1X-0.655
M03
G1X-6.667
M05
G1X-0.654
M03
G1X-0.588
M05
G1X-2.5
G1X-0.156Y0.1
G1X2.5
M03
G1X0.579
M05
G1X0.613
M03
G1X7.08
M05
G1X0.613
M03
G1X0.579
M05
G1X2.5
G1X0.142Y0.1
G1X-2.5
M03
G1X-0.556
M05
G1X-0.582
M03
G1X-7.472
M05
G1X-0.582
M03
G1X-0.557
M05
G1X-2.5
G1X-0.14Y0.1
G1X2.5
M03
G1X0.532
M05
G1X0.57
M03
G1X7.826
M05
G1X0.57
M03
G1X0.533
M05
G1X2.5
G1X0.133Y0.1
G1X-2.5
M03
G1X-0.513
M05
G1X-0.549
M03
G1X-8.174
M05
G1X-0.549
M03
G1X-0.514
M05
G1X-2.5
G1X-0.127Y0.1
G1X2.5
M03
G1X0.507
M05
G1X0.526
M03
G1X8.488
M05
G1X0.525
M03
G1X0.508
M05
G1X2.5
G1X0.127Y0.1
G1X-2.5
M03
G1X-0.501
M05
G1X-0.503
M03
G1X-8.801
M05
G1X-0.503
M03
G1X-0.5
M05
G1X-2.5
G1X-0.116Y0.1
G1X2.5
M03
G1X0.483
M05
G1X0.494
M03
G1X9.085
M05
G1X0.495
M03
G1X0.483
M05
G1X2.5
G1X0.116Y0.1
G1X-2.5
M03
G1X-0.465
M05
G1X-0.488
M03
G1X-9.366
M05
G1X-0.488
M03
G1X-0.465
M05
G1X-2.5
G1X-0.112Y0.1
G1X2.5
M03
G1X0.459
M05
G1X0.474
M03
G1X9.63
M05
G1X0.474
M03
G1X0.459
M05
G1X2.5
G1X0.105Y0.1
G1X-2.5
M03
G1X-0.454
M05
G1X-0.457
M03
G1X-9.884
M05
G1X-0.458
M03
G1X-0.453
M05
G1X-2.5
G1X-0.105Y0.1
G1X2.5
M03
G1X0.448
M05
G1X0.445
M03
G1X10.13
M05
G1X0.445
M03
G1X0.448
M05
G1X2.5
G1X0.1Y0.1
G1X-2.5
M03
G1X-0.438
M05
G1X-0.439
M03
G1X-10.362
M05
G1X-0.439
M03
G1X-0.439
M05
G1X-2.5
G1X-0.095Y0.1
G1X2.5
M03
G1X0.424
M05
G1X0.433
M03
G1X7.754
M05
G1X1.737
M03
G1X1.102
M05
G1X0.434
M03
G1X0.424
M05
G1X2.5
G1X0.095Y0.1
G1X-2.5
M03
G1X-0.416
M05
G1X-0.43
M03
G1X-0.707
M05
G1X-2.803
M03
G1X-7.296
M05
G1X-0.43
M03
G1X-0.416
M05
G1X-2.5
G1X-0.091Y0.1
G1X2.5
M03
G1X0.416
M05
G1X0.416
M03
G1X6.99
M05
G1X3.537
M03
G1X0.489
M05
G1X0.416
M03
G1X0.416
M05
G1X2.5
G1X0.086Y0.1
G1X-2.5
M03
G1X-0.411
M05
G1X-0.404
M03
G1X-0.35
M05
G1X-4.123
M03
G1X-6.749
M05
G1X-0.404
M03
G1X-0.412
M05
G1X-2.5
G1X-0.086Y0.1
G1X2.5
M03
G1X0.407
M05
G1X0.4
M03
G1X6.538
M05
G1X4.626
M03
G1X0.248
M05
G1X0.4
M03
G1X0.407
M05
G1X2.5
G1X0.083Y0.1
G1X-2.5
M03
G1X-0.399
M05
G1X-0.395
M03
G1X-0.18
M05
G1X-5.048
M03
G1X-6.376
M05
G1X-0.395
M03
G1X-0.399
M05
G1X-2.5
G1X-0.079Y0.1
G1X2.5
M03
G1X0.387
M05
G1X0.395
M03
G1X6.37
M05
G1X2.023
M03
G1X1.65
M05
G1X1.614
M03
G1X0.129
M05
G1X0.395
M03
G1X0.387
M05
G1X2.5
G1X0.078Y0.1
G1X-2.5
M03
G1X-0.383
M05
G1X-0.391
M03
G1X-0.092
M05
G1X-1.273
M03
G1X-2.655
M05
G1X-1.519
M03
G1X-6.42
M05
G1X-0.39
M03
G1X-0.383
M05
G1X-2.5
G1X-0.077Y0.1
G1X2.5
M03
G1X0.385
M05
G1X0.379
M03
G1X6.501
M05
G1X1.128
M03
G1X3.344
M05
G1X1.088
M03
G1X0.071
M05
G1X0.378
M03
G1X0.386
M05
G1X2.5
G1X0.071Y0.1
G1X-2.5
M03
G1X-0.382
M05
G1X-0.372
M03
G1X-0.057
M05
G1X-0.968
M03
G1X-1.045
M05
G1X-1.593
M03
G1X-1.254
M05
G1X-0.795
M03
G1X-6.582
M05
G1X-0.372
M03
G1X-0.382
M05
G1X-2.5
G1X-0.071Y0.1
G1X2.5
M03
G1X0.378
M05
G1X0.368
M03
G1X6.661
M05
G1X0.6
M03
G1X1.013
M05
G1X2.381
M03
G1X0.862
M05
G1X0.883
M03
G1X0.052
M05
G1X0.368
M03
G1X0.378
M05
G1X2.5
G1X0.072Y0.1
G1X-2.5
M03
G1X-0.375
M05
G1X-0.364
M03
G1X-0.057
M05
G1X-0.819
M03
G1X-0.768
M05
G1X-2.936
M03
G1X-0.69
M05
G1X-0.6
M03
G1X-6.74
M05
G1X-0.364
M03
G1X-0.374
M05
G1X-2.5
G1X-0.065Y0.1
G1X2.5
M03
G1X0.364
M05
G1X0.366
M03
G1X6.813
M05
G1X0.6
M03
G1X0.418
M05
G1X3.382
M03
G1X0.71
M05
G1X0.768
M03
G1X0.065
M05
G1X0.366
M03
G1X0.364
M05
G1X2.5
G1X0.064Y0.1
G1X-2.5
M03
G1X-0.357
M05
G1X-0.366
M03
G1X-0.078
M05
G1X-0.729
M03
G1X-0.668
M05
G1X-3.758
M03
G1X-0.181
M05
G1X-0.6
M03
G1X-6.885
M05
G1X-0.365
M03
G1X-0.357
M05
G1X-2.5
G1X-0.065Y0.1
G1X2.5
M03
G1X0.361
M05
G1X0.355
M03
G1X6.956
M05
G1X4.651
M03
G1X0.638
M05
G1X0.699
M03
G1X0.098
M05
G1X0.355
M03
G1X0.361
M05
G1X2.5
G1X0.06Y0.1
G1X-2.5
M03
G1X-0.36
M05
G1X-0.349
M03
G1X-0.119
M05
G1X-0.676
M03
G1X-0.612
M05
G1X-1.171
M03
G1X-1.471
M05
G1X-2.104
M03
G1X-7.023
M05
G1X-0.349
M03
G1X-0.361
M05
G1X-2.5
G1X-0.057Y0.1
G1X2.5
M03
G1X0.357
M05
G1X0.346
M03
G1X1.003
M05
G1X3.875
M03
G1X2.209
M05
G1X1.695
M03
G1X2.185
M05
G1X0.944
M03
G1X0.593
M05
G1X0.657
M03
G1X0.143
M05
G1X0.346
M03
G1X0.357
M05
G1X2.5
G1X0.058Y0.1
G1X-2.5
M03
G1X-0.355
M05
G1X-0.342
M03
G1X-0.172
M05
G1X-0.642
M03
G1X-0.578
M05
G1X-0.821
M03
G1X-2.676
M05
G1X-1.392
M03
G1X-1.548
M05
G1X-4.622
M03
G1X-0.981
M05
G1X-0.343
M03
G1X-0.353
M05
G1X-2.5
G1X-0.058Y0.1
G1X2.5
M03
G1X0.351
M05
G1X0.341
M03
G1X1.012
M05
G1X5.086
M03
G1X1.115
M05
G1X1.137
M03
G1X3.064
M05
G1X0.743
M03
G1X0.564
M05
G1X0.631
M03
G1X0.204
M05
G1X0.341
M03
G1X0.351
M05
G1X2.5
G1X0.051Y0.1
G1X-2.5
M03
G1X-0.341
M05
G1X-0.345
M03
G1X-0.235
M05
G1X-0.622
M03
G1X-0.555
M05
G1X-0.69
M03
G1X-3.388
M05
G1X-0.909
M03
G1X-0.781
M05
G1X-1.446
M03
G1X-3.678
M05
G1X-0.3
M03
G1X-1.067
M05
G1X-0.344
M03
G1X-0.342
M05
G1X-2.5
G1X-0.051Y0.1
G1X2.5
M03
G1X0.339
M05
G1X0.341
M03
G1X1.124
M05
G1X0.3
M03
G1X4.327
M05
G1X1.071
M03
G1X0.533
M05
G1X0.679
M03
G1X3.664
M05
G1X0.654
M03
G1X0.548
M05
G1X0.615
M03
G1X0.271
M05
G1X0.341
M03
G1X0.339
M05
G1X2.5
G1X0.051Y0.1
G1X-2.5
M03
G1X-0.341
M05
G1X-0.333
M03
G1X-0.311
M05
G1X-0.609
M03
G1X-0.542
M05
G1X-0.631
M03
G1X-3.905
M05
G1X-0.416
M03
G1X-0.374
M05
G1X-0.882
M03
G1X-4.749
M05
G1X-0.3
M03
G1X-1.181
M05
G1X-0.333
M03
G1X-0.341
M05
G1X-2.5
G1X-0.05Y0.1
G1X2.5
M03
G1X0.343
M05
G1X0.329
M03
G1X1.233
M05
G1X0.3
M03
G1X0.3
M05
G1X3.361
M03
G1X1.413
M05
G1X0.761
M03
G1X4.527
M05
G1X0.616
M03
G1X0.538
M05
G1X0.606
M03
G1X0.348
M05
G1X0.33
M03
G1X0.342
M05
G1X2.5
G1X0.046Y0.1
G1X-2.5
M03
G1X-0.34
M05
G1X-0.326
M03
G1X-0.388
M05
G1X-0.604
M03
G1X-0.536
M05
G1X-0.607
M03
G1X-4.373
M05
G1X-0.674
M03
G1X-1.044
M05
G1X-3.996
M03
G1X-0.3
M05
G1X-0.3
M03
G1X-1.284
M05
G1X-0.326
M03
G1X-0.34
M05
G1X-2.5
G1X-0.045Y0.1
G1X2.5
M03
G1X0.337
M05
G1X0.323
M03
G1X1.335
M05
G1X0.3
M03
G1X0.3
M05
G1X4.409
M03
G1X0.855
M05
G1X0.61
M03
G1X4.228
M05
G1X0.601
M03
G1X0.537
M05
G1X0.601
M03
G1X0.432
M05
G1X0.323
M03
G1X0.337
M05
G1X2.5
G1X0.046Y0.1
G1X-2.5
M03
G1X-0.334
M05
G1X-0.325
M03
G1X-0.474
M05
G1X-0.6
M03
G1X-0.538
M05
G1X-0.6
M03
G1X-4.089
M05
G1X-0.56
M03
G1X-0.735
M05
G1X-4.724
M03
G1X-0.3
M05
G1X-0.3
M03
G1X-1.382
M05
G1X-0.325
M03
G1X-0.333
M05
G1X-2.5
G1X-0.043Y0.1
G1X2.5
M03
G1X0.328
M05
G1X0.328
M03
G1X1.427
M05
G1X0.3
M03
G1X0.3
M05
G1X0.759
M03
G1X2.534
M05
G1X1.686
M03
G1X0.651
M05
G1X0.519
M03
G1X3.958
M05
G1X0.601
M03
G1X0.54
M05
G1X0.6
M03
G1X0.517
M05
G1X0.328
M03
G1X0.327
M05
G1X2.5
G1X0.04Y0.1
G1X-2.5
M03
G1X-0.323
M05
G1X-0.327
M03
G1X-0.563
M05
G1X-0.6
M03
G1X-0.544
M05
G1X-0.603
M03
G1X-3.831
M05
G1X-0.487
M03
G1X-0.588
M05
G1X-1.34
M03
G1X-3.187
M05
G1X-0.667
M03
G1X-0.3
M05
G1X-0.3
M03
G1X-1.473
M05
G1X-0.326
M03
G1X-0.323
M05
G1X-2.5
G1X-0.04Y0.1
G1X2.5
M03
G1X0.326
M05
G1X0.319
M03
G1X1.517
M05
G1X0.3
M03
G1X0.3
M05
G1X0.631
M03
G1X3.575
M05
G1X1.174
M03
G1X0.539
M05
G1X0.46
M03
G1X3.705
M05
G1X0.608
M03
G1X0.55
M05
G1X0.601
M03
G1X0.612
M05
G1X0.318
M03
G1X0.327
M05
G1X2.5
G1X0.039Y0.1
G1X-2.5
M03
G1X-0.329
M05
G1X-0.316
M03
G1X-0.657
M05
G1X-0.603
M03
G1X-0.558
M05
G1X-0.617
M03
G1X-3.58
M05
G1X-0.437
M03
G1X-0.5
M05
G1X-1.071
M03
G1X-1.194
M05
G1X-2.349
M03
G1X-0.3
M05
G1X-0.628
M03
G1X-0.3
M05
G1X-0.3
M03
G1X-1.556
M05
G1X-0.316
M03
G1X-0.329
M05
G1X-2.5
G1X-0.036Y0.1
G1X2.5
M03
G1X0.328
M05
G1X0.313
M03
G1X1.596
M05
G1X0.3
M03
G1X0.3
M05
G1X0.628
M03
G1X0.3
M05
G1X2.889
M03
G1X0.869
M05
G1X1
M03
G1X0.467
M05
G1X0.418
M03
G1X3.45
M05
G1X0.633
M03
G1X0.567
M05
G1X0.606
M03
G1X0.707
M05
G1X0.313
M03
G1X0.328
M05
G1X2.5
G1X0.034Y0.1
G1X-2.5
M03
G1X-0.326
M05
G1X-0.31
M03
G1X-0.76
M05
G1X-0.609
M03
G1X-0.579
M05
G1X-0.66
M03
G1X-3.308
M05
G1X-0.402
M03
G1X-0.441
M05
G1X-0.948
M03
G1X-0.711
M05
G1X-3.227
M03
G1X-0.3
M05
G1X-0.628
M03
G1X-0.3
M05
G1X-0.3
M03
G1X-1.635
M05
G1X-0.311
M03
G1X-0.325
M05
G1X-2.5
G1X-0.034Y0.1
G1X2.5
M03
G1X0.323
M05
G1X0.311
M03
G1X1.671
M05
G1X0.3
M03
G1X0.3
M05
G1X0.628
M03
G1X0.3
M05
G1X3.48
M03
G1X0.614
M05
G1X0.906
M03
G1X0.42
M05
G1X0.388
M03
G1X3.151
M05
G1X0.7
M03
G1X0.596
M05
G1X0.613
M03
G1X0.813
M05
G1X0.311
M03
G1X0.323
M05
G1X2.5
G1X0.034Y0.1
G1X-2.5
M03
G1X-0.32
M05
G1X-0.314
M03
G1X-0.868
M05
G1X-0.62
M03
G1X-0.613
M05
G1X-0.765
M03
G1X-2.967
M05
G1X-0.377
M03
G1X-0.402
M05
G1X-0.874
M03
G1X-0.545
M05
G1X-0.302
M03
G1X-0.12
M05
G1X-0.311
M03
G1X-0.128
M05
G1X-0.387
M03
G1X-0.12
M05
G1X-0.647
M03
G1X-0.119
M05
G1X-0.227
M03
G1X-0.169
M05
G1X-0.286
M03
G1X-0.124
M05
G1X-0.611
M03
G1X-0.12
M05
G1X-0.013
M03
G1X-0.3
M05
G1X-0.628
M03
G1X-0.3
M05
G1X-0.3
M03
G1X-1.705
M05
G1X-0.314
M03
G1X-0.32
M05
G1X-2.5
G1X-0.03Y0.1
G1X2.5
M03
G1X0.313
M05
G1X0.317
M03
G1X1.739
M05
G1X0.3
M03
G1X0.3
M05
G1X0.628
M03
G1X0.3
M05
G1X0.013
M03
G1X0.12
M05
G1X1.096
M03
G1X0.127
M05
G1X0.194
M03
G1X0.119
M05
G1X0.647
M03
G1X0.12
M05
G1X0.293
M03
G1X0.13
M05
G1X0.403
M03
G1X0.12
M05
G1X0.471
M03
G1X0.495
M05
G1X0.848
M03
G1X0.388
M05
G1X0.367
M03
G1X2.745
M05
G1X0.861
M03
G1X0.636
M05
G1X0.629
M03
G1X0.927
M05
G1X0.316
M03
G1X0.313
M05
G1X2.5
G1X0.029Y0.1
G1X-2.5
M03
G1X-0.314
M05
G1X-0.31
M03
G1X-0.99
M05
G1X-0.641
M03
G1X-0.663
M05
G1X-1.006
M03
G1X-2.468
M05
G1X-0.359
M03
G1X-0.375
M05
G1X-0.826
M03
G1X-0.458
M05
G1X-0.615
M03
G1X-0.12
M05
G1X-0.44
M03
G1X-0.506
M05
G1X-0.226
M03
G1X-0.54
M05
G1X-0.323
M03
G1X-0.387
M05
G1X-0.286
M03
G1X-0.541
M05
G1X-0.013
M03
G1X-0.3
M05
G1X-0.628
M03
G1X-0.3
M05
G1X-0.3
M03
G1X-1.773
M05
G1X-0.31
M03
G1X-0.314
M05
G1X-2.5
G1X-0.028Y0.1
G1X2.5
M03
G1X0.316
M05
G1X0.307
M03
G1X1.802
M05
G1X0.3
M03
G1X0.3
M05
G1X0.628
M03
G1X0.3
M05
G1X0.013
M03
G1X0.12
M05
G1X0.608
M03
G1X0.122
M05
G1X0.687
M03
G1X0.119
M05
G1X0.647
M03
G1X0.12
M05
G1X0.323
M03
G1X0.126
M05
G1X0.377
M03
G1X0.12
M05
G1X0.74
M03
G1X0.429
M05
G1X0.807
M03
G1X0.364
M05
G1X0.352
M03
G1X2.112
M05
G1X1.22
M03
G1X0.697
M05
G1X0.656
M03
G1X1.053
M05
G1X0.307
M03
G1X0.316
M05
G1X2.5
G1X0.029Y0.1
G1X-2.5
M03
G1X-0.32
M05
G1X-0.304
M03
G1X-1.121
M05
G1X-0.674
M03
G1X-0.74
M05
G1X-1.557
M03
G1X-1.619
M05
G1X-0.345
M03
G1X-0.355
M05
G1X-0.792
M03
G1X-0.406
M05
G1X-0.535
M03
G1X-0.748
M05
G1X-0.138
M03
G1X-0.494
M05
G1X-0.207
M03
G1X-0.559
M05
G1X-0.24
M03
G1X-0.495
M05
G1X-0.243
M03
G1X-0.559
M05
G1X-0.013
M03
G1X-0.3
M05
G1X-0.628
M03
G1X-0.3
M05
G1X-0.3
M03
G1X-1.83
M05
G1X-0.304
M03
G1X-0.32
M05
G1X-2.5
G1X-0.025Y0.1
G1X2.5
M03
G1X0.319
M05
G1X0.301
M03
G1X1.859
M05
G1X0.3
M03
G1X0.3
M05
G1X0.628
M03
G1X0.3
M05
G1X4.327
M03
G1X0.388
M05
G1X0.779
M03
G1X0.347
M05
G1X0.339
M03
G1X1.054
M05
G1X1.948
M03
G1X0.795
M05
G1X0.697
M03
G1X1.195
M05
G1X0.301
M03
G1X0.318
M05
G1X2.5
G1X0.023Y0.1
G1X-2.5
M03
G1X-0.315
M05
G1X-0.3
M03
G1X-1.273
M05
G1X-0.727
M03
G1X-0.867
M05
G1X-2.235
M03
G1X-0.566
M05
G1X-0.334
M03
G1X-0.34
M05
G1X-0.769
M03
G1X-0.372
M05
G1X-0.407
M03
G1X-0.061
M05
G1X-3.945
M03
G1X-0.3
M05
G1X-0.628
M03
G1X-0.3
M05
G1X-0.3
M03
G1X-1.886
M05
G1X-0.3
M03
G1X-0.316
M05
G1X-2.5
G1X-0.023Y0.1
G1X2.5
M03
G1X0.313
M05
G1X0.303
M03
G1X1.909
M05
G1X0.3
M03
G1X0.3
M05
G1X0.628
M03
G1X0.3
M05
G1X0.71
M03
G1X0.052
M05
G1X3.073
M03
G1X0.268
M05
G1X0.386
M03
G1X0.361
M05
G1X0.759
M03
G1X0.334
M05
G1X0.329
M03
G1X0.18
M05
G1X2.387
M03
G1X0.961
M05
G1X0.765
M03
G1X1.354
M05
G1X0.303
M03
G1X0.313
M05
G1X2.5
G1X0.023Y0.1
G1X-2.5
M03
G1X-0.311
M05
G1X-0.305
M03
G1X-1.443
M05
G1X-0.809
M03
G1X-1.097
M05
G1X-2.604
M03
G1X-0.33
M05
G1X-0.75
M03
G1X-0.351
M05
G1X-0.37
M03
G1X-3.888
M05
G1X-0.3
M03
G1X-0.3
M05
G1X-0.628
M03
G1X-0.3
M05
G1X-0.3
M03
G1X-1.932
M05
G1X-0.305
M03
G1X-0.311
M05
G1X-2.5
G1X-0.02Y0.1
G1X2.5
M03
G1X0.305
M05
G1X0.308
M03
G1X1.955
M05
G1X0.3
M03
G1X0.3
M05
G1X0.628
M03
G1X0.3
M05
G1X0.3
M03
G1X3.964
M05
G1X0.356
M03
G1X0.343
M05
G1X0.742
M03
G1X0.326
M05
G1X2.233
M03
G1X1.292
M05
G1X0.87
M03
G1X1.539
M05
G1X0.308
M03
G1X0.304
M05
G1X2.5
G1X0.018Y0.1
G1X-2.5
M03
G1X-0.307
M05
G1X-0.302
M03
G1X-1.644
M05
G1X-0.945
M03
G1X-1.591
M05
G1X-1.736
M03
G1X-0.322
M05
G1X-0.736
M03
G1X-0.336
M05
G1X-0.346
M03
G1X-4.03
M05
G1X-0.3
M03
G1X-0.3
M05
G1X-0.628
M03
G1X-0.3
M05
G1X-0.3
M03
G1X-1.976
M05
G1X-0.303
M03
G1X-0.307
M05
G1X-2.5
G1X-0.018Y0.1
G1X2.5
M03
G1X0.31
M05
G1X0.3
M03
G1X1.994
M05
G1X0.3
M03
G1X0.3
M05
G1X0.628
M03
G1X0.3
M05
G1X0.3
M03
G1X4.088
M05
G1X0.34
M03
G1X0.329
M05
G1X0.538
M03
G1X0.51
M05
G1X1.189
M03
G1X1.91
M05
G1X1.045
M03
G1X1.755
M05
G1X0.3
M03
G1X0.31
M05
G1X2.5
G1X0.018Y0.1
G1X-2.5
M03
G1X-0.313
M05
G1X-0.297
M03
G1X-1.878
M05
G1X-1.177
M03
G1X-2.095
M05
G1X-0.851
M03
G1X-0.567
M05
G1X-0.356
M03
G1X-0.325
M05
G1X-0.331
M03
G1X-4.142
M05
G1X-0.3
M03
G1X-0.3
M05
G1X-0.628
M03
G1X-0.3
M05
G1X-0.3
M03
G1X-2.012
M05
G1X-0.297
M03
G1X-0.312
M05
G1X-2.5
G1X-0.016Y0.1
G1X2.5
M03
G1X0.313
M05
G1X0.294
M03
G1X2.03
M05
G1X0.3
M03
G1X0.3
M05
G1X0.628
M03
G1X0.3
M05
G1X0.3
M03
G1X4.189
M05
G1X0.326
M03
G1X0.32
M05
G1X0.199
M03
G1X0.505
M05
G1X0.712
M03
G1X2.113
M05
G1X1.36
M03
G1X2.016
M05
G1X0.294
M03
G1X0.313
M05
G1X2.5
G1X0.013Y0.1
G1X-2.5
M03
G1X-0.311
M05
G1X-0.294
M03
G1X-2.167
M05
G1X-1.634
M03
G1X-1.746
M05
G1X-0.82
M03
G1X-0.459
M05
G1X-0.06
M03
G1X-0.316
M05
G1X-0.322
M03
G1X-4.231
M05
G1X-0.3
M03
G1X-0.3
M05
G1X-0.628
M03
G1X-0.3
M05
G1X-0.3
M03
G1X-2.045
M05
G1X-0.295
M03
G1X-0.31
M05
G1X-2.5
G1X-0.013Y0.1
G1X2.5
M03
G1X0.308
M05
G1X0.297
M03
G1X2.058
M05
G1X0.3
M03
G1X0.3
M05
G1X0.628
M03
G1X0.3
M05
G1X0.3
M03
G1X4.269
M05
G1X0.318
M03
G1X0.672
M05
G1X0.973
M03
G1X1.231
M05
G1X1.967
M03
G1X2.338
M05
G1X0.297
M03
G1X0.308
M05
G1X2.5
G1X0.012Y0.1
G1X-2.5
M03
G1X-0.305
M05
G1X-0.299
M03
G1X-2.532
M05
G1X-2.273
M03
G1X-0.721
M05
G1X-0.615
M03
G1X-0.014
M05
G1X-0.473
M03
G1X-0.535
M05
G1X-4.522
M03
G1X-0.096
M05
G1X-0.3
M03
G1X-0.3
M05
G1X-0.628
M03
G1X-0.3
M05
G1X-0.3
M03
G1X-2.071
M05
G1X-0.299
M03
G1X-0.305
M05
G1X-2.5
G1X-0.012Y0.1
G1X2.5
M03
G1X0.301
M05
G1X0.303
M03
G1X2.083
M05
G1X0.3
M03
G1X0.3
M05
G1X0.628
M03
G1X0.3
M05
G1X4.945
M03
G1X0.416
M05
G1X0.428
M03
G1X0.174
M05
G1X0.612
M03
G1X0.317
M05
G1X2.44
M03
G1X2.761
M05
G1X0.302
M03
G1X0.302
M05
G1X2.5
G1X0.008Y0.1
G1X-2.5
M03
G1X-0.303
M05
G1X-0.299
M03
G1X-3.031
M05
G1X-2.464
M03
G1X-0.014
M05
G1X-0.61
M03
G1X-0.307
M05
G1X-0.393
M03
G1X-0.314
M05
G1X-4.97
M03
G1X-0.3
M05
G1X-0.628
M03
G1X-0.3
M05
G1X-0.3
M03
G1X-2.093
M05
G1X-0.299
M03
G1X-0.303
M05
G1X-2.5
G1X-0.007Y0.1
G1X2.5
M03
G1X0.305
M05
G1X0.296
M03
G1X2.101
M05
G1X0.3
M03
G1X0.3
M05
G1X0.628
M03
G1X0.3
M05
G1X5.011
M03
G1X0.207
M05
G1X0.367
M03
G1X0.417
M05
G1X2.746
M03
G1X3.363
M05
G1X0.296
M03
G1X0.305
M05
G1X2.5
G1X0.008Y0.1
G1X-2.5
M03
G1X-0.308
M05
G1X-0.294
M03
G1X-1.949
M05
G1X-4.15
M03
G1X-0.509
M05
G1X-0.348
M03
G1X-0.151
M05
G1X-5.011
M03
G1X-0.3
M05
G1X-0.628
M03
G1X-0.3
M05
G1X-0.3
M03
G1X-2.109
M05
G1X-0.293
M03
G1X-0.308
M05
G1X-2.5
G1X-0.007Y0.1
G1X2.5
M03
G1X0.31
M05
G1X0.291
M03
G1X2.116
M05
G1X0.3
M03
G1X0.3
M05
G1X0.628
M03
G1X0.3
M05
G1X5.028
M03
G1X0.086
M05
G1X0.335
M03
G1X0.585
M05
G1X4.276
M03
G1X1.816
M05
G1X0.291
M03
G1X0.311
M05
G1X2.5
G1Y0.1
G1X-2.497
M03
G1X-0.309
M05
G1X-0.291
M03
G1X-1.742
M05
G1X-4.342
M03
G1X-0.649
M05
G1X-0.323
M03
G1X-0.03
M05
G1X-0.334
M03
G1X-3.85
M05
G1X-0.861
M03
G1X-0.3
M05
G1X-0.628
M03
G1X-0.3
M05
G1X-0.3
M03
G1X-2.121
M05
G1X-0.291
M03
G1X-0.309
M05
G1X-2.5
G1Y0.1
G1X2.498
M03
G1X0.306
M05
G1X0.293
M03
G1X2.124
M05
G1X0.3
M03
G1X0.3
M05
G1X0.628
M03
G1X0.3
M05
G1X0.861
M03
G1X3.85
M05
G1X0.647
M03
G1X0.7
M05
G1X0.607
M03
G1X0.12
M05
G1X0.453
M03
G1X0.13
M05
G1X0.342
M03
G1X0.13
M05
G1X0.262
M03
G1X0.12
M05
G1X0.361
M03
G1X0.171
M05
G1X0.282
M03
G1X0.12
M05
G1X0.273
M03
G1X0.147
M05
G1X0.353
M03
G1X0.147
M05
G1X0.359
M03
G1X1.698
M05
G1X0.294
M03
G1X0.306
M05
G1X2.5
G1Y0.1
G1X-2.497
M03
G1X-0.304
M05
G1X-0.296
M03
G1X-1.68
M05
G1X-0.311
M03
G1X-0.124
M05
G1X-0.538
M03
G1X-0.124
M05
G1X-0.203
M03
G1X-0.12
M05
G1X-0.208
M03
G1X-0.124
M05
G1X-0.482
M03
G1X-0.12
M05
G1X-0.225
M03
G1X-0.121
M05
G1X-0.434
M03
G1X-0.121
M05
G1X-0.416
M03
G1X-0.12
M05
G1X-0.582
M03
G1X-0.761
M05
G1X-4.01
M03
G1X-0.451
M05
G1X-0.861
M03
G1X-0.3
M05
G1X-0.628
M03
G1X-0.3
M05
G1X-0.3
M03
G1X-2.126
M05
G1X-0.296
M03
G1X-0.304
M05
G1X-2.5
G1Y0.1
G1X2.498
M03
G1X0.301
M05
G1X0.298
M03
G1X2.129
M05
G1X0.3
M03
G1X0.3
M05
G1X0.628
M03
G1X0.3
M05
G1X0.861
M03
G1X0.367
M05
G1X4.071
M03
G1X0.794
M05
G1X0.572
M03
G1X0.12
M05
G1X0.415
M03
G1X0.121
M05
G1X0.436
M03
G1X0.12
M05
G1X0.225
M03
G1X0.12
M05
G1X0.488
M03
G1X0.125
M05
G1X0.201
M03
G1X0.12
M05
G1X0.197
M03
G1X0.125
M05
G1X0.549
M03
G1X0.124
M05
G1X0.307
M03
G1X1.68
M05
G1X0.299
M03
G1X0.301
M05
G1X2.5
G1Y0.1
G1X-2.5
M03
G1X-0.301
M05
G1X-0.299
M03
G1X-1.695
M05
G1X-0.343
M03
G1X-0.132
M05
G1X-0.431
M03
G1X-0.133
M05
G1X-0.248
M03
G1X-0.12
M05
G1X-0.252
M03
G1X-0.141
M05
G1X-0.421
M03
G1X-0.12
M05
G1X-0.225
M03
G1X-0.12
M05
G1X-0.436
M03
G1X-0.121
M05
G1X-0.415
M03
G1X-0.12
M05
G1X-0.609
M03
G1X-0.779
M05
G1X-4.079
M03
G1X-0.337
M05
G1X-0.861
M03
G1X-0.3
M05
G1X-0.628
M03
G1X-0.3
M05
G1X-0.3
M03
G1X-2.129
M05
G1X-0.298
M03
G1X-0.302
M05
G1X-2.5
G1Y0.1
G1X2.503
M03
G1X0.304
M05
G1X0.296
M03
G1X2.126
M05
G1X0.3
M03
G1X0.3
M05
G1X0.628
M03
G1X0.3
M05
G1X0.861
M03
G1X0.334
M05
G1X4.067
M03
G1X0.788
M05
G1X0.3
M03
G1X0.749
M05
G1X0.101
M03
G1X0.121
M05
G1X0.436
M03
G1X0.12
M05
G1X0.225
M03
G1X0.39
M05
G1X0.544
M03
G1X0.12
M05
G1X0.426
M03
G1X0.341
M05
G1X0.479
M03
G1X1.734
M05
G1X0.296
M03
G1X0.304
M05
G1X2.5
G1Y0.1
G1X-2.503
M03
G1X-0.306
M05
G1X-0.294
M03
G1X-1.801
M05
G1X-4.268
M03
G1X-0.843
M05
G1X-0.848
M03
G1X-0.137
M05
G1X-0.491
M03
G1X-0.137
M05
G1X-0.299
M03
G1X-0.141
M05
G1X-0.333
M03
G1X-0.208
M05
G1X-0.632
M03
G1X-0.137
M05
G1X-0.663
M03
G1X-0.334
M05
G1X-0.861
M03
G1X-0.3
M05
G1X-0.628
M03
G1X-0.3
M05
G1X-0.3
M03
G1X-2.124
M05
G1X-0.293
M03
G1X-0.306
M05
G1X-2.5
G1Y0.1
G1X2.502
M03
G1X0.309
M05
G1X0.291
M03
G1X2.121
M05
G1X0.3
M03
G1X0.3
M05
G1X0.628
M03
G1X0.3
M05
G1X0.861
M03
G1X0.334
M05
G1X0.663
M03
G1X0.137
M05
G1X0.537
M03
G1X0.15
M05
G1X0.926
M03
G1X0.137
M05
G1X0.491
M03
G1X0.137
M05
G1X0.739
M03
G1X1.007
M05
G1X4.095
M03
G1X1.917
M05
G1X0.291
M03
G1X0.309
M05
G1X2.5
G1Y0.1
G1X-2.504
M03
G1X-0.31
M05
G1X-0.291
M03
G1X-2.18
M05
G1X-0.382
M03
G1X-0.334
M05
G1X-0.269
M03
G1X-0.426
M05
G1X-0.508
M03
G1X-0.076
M05
G1X-0.268
M03
G1X-0.288
M05
G1X-1.119
M03
G1X-1.603
M05
G1X-0.3
M03
G1X-0.137
M05
G1X-0.491
M03
G1X-0.137
M05
G1X-0.96
M03
G1X-0.142
M05
G1X-0.511
M03
G1X-0.137
M05
G1X-0.663
M03
G1X-0.334
M05
G1X-0.861
M03
G1X-0.3
M05
G1X-0.628
M03
G1X-0.3
M05
G1X-0.3
M03
G1X-2.116
M05
G1X-0.291
M03
G1X-0.311
M05
G1X-2.5
G1X0.008Y0.1
G1X2.5
M03
G1X0.308
M05
G1X0.293
M03
G1X2.109
M05
G1X0.3
M03
G1X0.3
M05
G1X0.628
M03
G1X0.3
M05
G1X0.861
M03
G1X0.334
M05
G1X0.663
M03
G1X0.137
M05
G1X0.526
M03
G1X0.14
M05
G1X0.947
M03
G1X0.137
M05
G1X0.491
M03
G1X0.137
M05
G1X0.3
M03
G1X7.445
M05
G1X0.294
M03
G1X0.308
M05
G1X2.5
G1X-0.008Y0.1
G1X-2.5
M03
G1X-0.305
M05
G1X-0.296
M03
G1X-7.438
M05
G1X-0.3
M03
G1X-0.137
M05
G1X-0.491
M03
G1X-0.137
M05
G1X-0.299
M03
G1X-0.03
M05
G1X-0.542
M03
G1X-0.151
M05
G1X-0.591
M03
G1X-0.137
M05
G1X-0.663
M03
G1X-0.334
M05
G1X-0.861
M03
G1X-0.3
M05
G1X-0.628
M03
G1X-0.3
M05
G1X-0.3
M03
G1X-2.101
M05
G1X-0.296
M03
G1X-0.305
M05
G1X-2.5
G1X0.007Y0.1
G1X2.5
M03
G1X0.303
M05
G1X0.299
M03
G1X2.093
M05
G1X0.3
M03
G1X0.3
M05
G1X0.628
M03
G1X0.3
M05
G1X0.861
M03
G1X0.334
M05
G1X0.307
M03
G1X0.847
M05
G1X0.422
M03
G1X0.443
M05
G1X0.394
M03
G1X0.137
M05
G1X0.491
M03
G1X0.137
M05
G1X0.3
M03
G1X7.43
M05
G1X0.299
M03
G1X0.303
M05
G1X2.5
G1X-0.008Y0.1
G1X-2.5
M03
G1X-0.302
M05
G1X-0.302
M03
G1X-7.432
M05
G1X-3.466
M03
G1X-0.334
M05
G1X-0.861
M03
G1X-0.3
M05
G1X-0.628
M03
G1X-0.3
M05
G1X-0.3
M03
G1X-2.084
M05
G1X-0.302
M03
G1X-0.301
M05
G1X-2.5
G1X0.011Y0.1
G1X2.5
M03
G1X0.306
M05
G1X0.299
M03
G1X2.071
M05
G1X0.3
M03
G1X0.3
M05
G1X0.628
M03
G1X0.3
M05
G1X0.861
M03
G1X0.334
M05
G1X2.786
M03
G1X0.019
M05
G1X0.61
M03
G1X7.471
M05
G1X0.299
M03
G1X0.305
M05
G1X2.5
G1X-0.013Y0.1
G1X-2.5
M03
G1X-0.307
M05
G1X-0.297
M03
G1X-1.744
M05
G1X-0.402
M03
G1X-5.453
M05
G1X-0.328
M03
G1X-0.3
M05
G1X-0.328
M03
G1X-0.266
M05
G1X-0.518
M03
G1X-0.284
M05
G1X-1.25
M03
G1X-0.334
M05
G1X-0.861
M03
G1X-0.3
M05
G1X-0.628
M03
G1X-0.3
M05
G1X-0.3
M03
G1X-2.058
M05
G1X-0.297
M03
G1X-0.308
M05
G1X-2.5
G1X0.013Y0.1
G1X2.5
M03
G1X0.31
M05
G1X0.295
M03
G1X2.045
M05
G1X0.3
M03
G1X0.3
M05
G1X0.628
M03
G1X0.3
M05
G1X0.861
M03
G1X0.334
M05
G1X0.6
M03
G1X4.364
M05
G1X0.39
M03
G1X3.149
M05
G1X0.705
M03
G1X1.652
M05
G1X0.294
M03
G1X0.311
M05
G1X2.5
G1X-0.013Y0.1
G1X-2.5
M03
G1X-0.313
M05
G1X-0.294
M03
G1X-1.608
M05
G1X-0.981
M03
G1X-2.796
M05
G1X-0.572
M03
G1X-4.288
M05
G1X-0.6
M03
G1X-0.334
M05
G1X-0.861
M03
G1X-0.3
M05
G1X-0.628
M03
G1X-0.3
M05
G1X-0.3
M03
G1X-2.03
M05
G1X-0.294
M03
G1X-0.313
M05
G1X-2.5
G1X0.015Y0.1
G1X2.5
M03
G1X0.313
M05
G1X0.297
M03
G1X2.012
M05
G1X0.3
M03
G1X0.3
M05
G1X0.628
M03
G1X0.3
M05
G1X0.861
M03
G1X0.334
M05
G1X0.6
M03
G1X4.26
M05
G1X0.752
M03
G1X2.363
M05
G1X1.264
M03
G1X1.588
M05
G1X0.297
M03
G1X0.312
M05
G1X2.5
G1X-0.018Y0.1
G1X-2.5
M03
G1X-0.309
M05
G1X-0.3
M03
G1X-1.57
M05
G1X-1.61
M03
G1X-1.789
M05
G1X-0.992
M03
G1X-4.248
M05
G1X-0.6
M03
G1X-0.334
M05
G1X-0.861
M03
G1X-0.3
M05
G1X-0.628
M03
G1X-0.3
M05
G1X-0.3
M03
G1X-1.994
M05
G1X-0.3
M03
G1X-0.31
M05
G1X-2.5
G1X0.018Y0.1
G1X2.5
M03
G1X0.307
M05
G1X0.303
M03
G1X1.976
M05
G1X0.3
M03
G1X0.3
M05
G1X0.628
M03
G1X0.3
M05
G1X0.861
M03
G1X0.334
M05
G1X0.6
M03
G1X4.234
M05
G1X1.476
M03
G1X0.765
M05
G1X2.164
M03
G1X1.552
M05
G1X0.302
M03
G1X0.308
M05
G1X2.5
G1X-0.018Y0.1
G1X-2.5
M03
G1X-0.305
M05
G1X-0.308
M03
G1X-1.531
M05
G1X-4.421
M03
G1X-4.218
M05
G1X-0.6
M03
G1X-0.334
M05
G1X-0.861
M03
G1X-0.3
M05
G1X-0.628
M03
G1X-0.3
M05
G1X-0.3
M03
G1X-1.955
M05
G1X-0.308
M03
G1X-0.305
M05
G1X-2.5
G1X0.02Y0.1
G1X2.5
M03
G1X0.311
M05
G1X0.305
M03
G1X1.932
M05
G1X0.3
M03
G1X0.3
M05
G1X0.628
M03
G1X0.3
M05
G1X0.861
M03
G1X0.334
M05
G1X0.6
M03
G1X4.201
M05
G1X3.821
M03
G1X0.017
M05
G1X0.6
M03
G1X1.508
M05
G1X0.305
M03
G1X0.311
M05
G1X2.5
G1X-0.024Y0.1
G1X-2.5
M03
G1X-0.312
M05
G1X-0.303
M03
G1X-1.485
M05
G1X-0.6
M03
G1X-0.275
M05
G1X-3.583
M03
G1X-4.181
M05
G1X-0.6
M03
G1X-0.334
M05
G1X-0.861
M03
G1X-0.3
M05
G1X-0.628
M03
G1X-0.3
M05
G1X-0.3
M03
G1X-1.909
M05
G1X-0.303
M03
G1X-0.313
M05
G1X-2.5
G1X0.023Y0.1
G1X2.5
M03
G1X0.316
M05
G1X0.3
M03
G1X1.886
M05
G1X0.3
M03
G1X0.3
M05
G1X0.628
M03
G1X0.3
M05
G1X0.861
M03
G1X0.334
M05
G1X0.6
M03
G1X4.16
M05
G1X0.613
M03
G1X0.1
M05
G1X2.594
M03
G1X0.572
M05
G1X0.6
M03
G1X1.462
M05
G1X0.3
M03
G1X0.315
M05
G1X2.5
G1X-0.023Y0.1
G1X-2.5
M03
G1X-0.318
M05
G1X-0.301
M03
G1X-1.435
M05
G1X-0.6
M03
G1X-0.937
M05
G1X-1.954
M03
G1X-0.395
M05
G1X-0.617
M03
G1X-4.136
M05
G1X-0.6
M03
G1X-0.334
M05
G1X-0.861
M03
G1X-0.3
M05
G1X-0.628
M03
G1X-0.3
M05
G1X-0.3
M03
G1X-1.859
M05
G1X-0.301
M03
G1X-0.318
M05
G1X-2.5
G1X0.024Y0.1
G1X2.5
M03
G1X0.32
M05
G1X0.304
M03
G1X1.83
M05
G1X0.3
M03
G1X0.3
M05
G1X0.628
M03
G1X0.3
M05
G1X0.861
M03
G1X0.334
M05
G1X0.6
M03
G1X4.11
M05
G1X0.619
M03
G1X0.953
M05
G1X0.821
M03
G1X1.456
M05
G1X0.68
M03
G1X1.406
M05
G1X0.304
M03
G1X0.319
M05
G1X2.5
G1X-0.028Y0.1
G1X-2.5
M03
G1X-0.316
M05
G1X-0.307
M03
G1X-1.378
M05
G1X-1.045
M03
G1X-2.89
M05
G1X-0.623
M03
G1X-4.081
M05
G1X-0.6
M03
G1X-0.334
M05
G1X-0.861
M03
G1X-0.3
M05
G1X-0.628
M03
G1X-0.3
M05
G1X-0.3
M03
G1X-1.802
M05
G1X-0.307
M03
G1X-0.316
M05
G1X-2.5
G1X0.028Y0.1
G1X2.5
M03
G1X0.314
M05
G1X0.31
M03
G1X1.773
M05
G1X0.3
M03
G1X0.3
M05
G1X0.628
M03
G1X0.3
M05
G1X0.861
M03
G1X0.334
M05
G1X3.672
M03
G1X0.977
M05
G1X0.966
M03
G1X2.111
M05
G1X1.513
M03
G1X1.349
M05
G1X0.31
M03
G1X0.314
M05
G1X2.5
G1X-0.028Y0.1
G1X-2.5
M03
G1X-0.314
M05
G1X-0.316
M03
G1X-1.334
M05
G1X-2.369
M03
G1X-0.514
M05
G1X-1.695
M03
G1X-0.886
M05
G1X-3.756
M03
G1X-0.334
M05
G1X-0.861
M03
G1X-0.3
M05
G1X-0.628
M03
G1X-0.3
M05
G1X-0.3
M03
G1X-1.739
M05
G1X-0.317
M03
G1X-0.312
M05
G1X-2.5
G1X0.029Y0.1
G1X2.5
M03
G1X0.32
M05
G1X0.313
M03
G1X1.706
M05
G1X0.3
M03
G1X0.3
M05
G1X0.628
M03
G1X0.3
M05
G1X0.861
M03
G1X0.334
M05
G1X3.788
M03
G1X0.881
M05
G1X4.49
M03
G1X1.361
M05
G1X0.314
M03
G1X0.319
M05
G1X2.5
G1X-0.033Y0.1
G1X-2.5
M03
G1X-0.323
M05
G1X-0.311
M03
G1X-1.512
M05
G1X-4.228
M03
G1X-0.962
M05
G1X-3.776
M03
G1X-0.342
M05
G1X-0.861
M03
G1X-0.3
M05
G1X-0.628
M03
G1X-0.3
M05
G1X-0.3
M03
G1X-1.672
M05
G1X-0.31
M03
G1X-0.323
M05
G1X-2.5
G1X0.034Y0.1
G1X2.5
M03
G1X0.325
M05
G1X0.311
M03
G1X1.635
M05
G1X0.3
M03
G1X0.3
M05
G1X0.628
M03
G1X0.3
M05
G1X0.861
M03
G1X0.382
M05
G1X3.696
M03
G1X1.188
M05
G1X3.715
M03
G1X1.803
M05
G1X0.31
M03
G1X0.326
M05
G1X2.5
G1X-0.034Y0.1
G1X-2.5
M03
G1X-0.328
M05
G1X-0.313
M03
G1X-2.145
M05
G1X-3.077
M03
G1X-1.501
M05
G1X-3.534
M03
G1X-0.488
M05
G1X-0.861
M03
G1X-0.3
M05
G1X-0.628
M03
G1X-0.3
M05
G1X-0.3
M03
G1X-1.596
M05
G1X-0.313
M03
G1X-0.328
M05
G1X-2.5
G1X0.035Y0.1
G1X2.5
M03
G1X0.33
M05
G1X0.316
M03
G1X1.556
M05
G1X0.3
M03
G1X0.3
M05
G1X0.628
M03
G1X0.3
M05
G1X0.861
M03
G1X3.197
M05
G1X0.763
M03
G1X1.921
M05
G1X2.235
M03
G1X2.589
M05
G1X0.316
M03
G1X0.329
M05
G1X2.5
G1X-0.039Y0.1
G1X-2.5
M03
G1X-0.327
M05
G1X-0.318
M03
G1X-3.471
M05
G1X-0.534
M03
G1X-2.769
M05
G1X-0.801
M03
G1X-3.091
M05
G1X-0.861
M03
G1X-0.3
M05
G1X-0.628
M03
G1X-0.3
M05
G1X-0.3
M03
G1X-1.517
M05
G1X-0.319
M03
G1X-0.326
M05
G1X-2.5
G1X0.04Y0.1
G1X2.5
M03
G1X0.323
M05
G1X0.326
M03
G1X1.473
M05
G1X0.3
M03
G1X0.3
M05
G1X0.628
M03
G1X0.3
M05
G1X0.861
M03
G1X0.437
M05
G1X3.381
M03
G1X6.803
M05
G1X0.327
M03
G1X0.323
M05
G1X2.5
G1X-0.039Y0.1
G1X-2.5
M03
G1X-0.328
M05
G1X-0.328
M03
G1X-6.84
M05
G1X-3.373
M03
G1X-0.363
M05
G1X-0.861
M03
G1X-0.3
M05
G1X-0.628
M03
G1X-0.3
M05
G1X-0.3
M03
G1X-1.427
M05
G1X-0.328
M03
G1X-0.328
M05
G1X-2.5
G1X0.042Y0.1
G1X2.5
M03
G1X0.334
M05
G1X0.325
M03
G1X1.382
M05
G1X0.3
M03
G1X0.3
M05
G1X0.628
M03
G1X0.3
M05
G1X0.861
M03
G1X0.336
M05
G1X3.309
M03
G1X6.886
M05
G1X0.325
M03
G1X0.333
M05
G1X2.5
G1X-0.045Y0.1
G1X-2.5
M03
G1X-0.337
M05
G1X-0.323
M03
G1X-6.941
M05
G1X-3.209
M03
G1X-0.334
M05
G1X-0.861
M03
G1X-0.3
M05
G1X-0.628
M03
G1X-0.3
M05
G1X-0.3
M03
G1X-1.335
M05
G1X-0.323
M03
G1X-0.338
M05
G1X-2.5
G1X0.046Y0.1
G1X2.5
M03
G1X0.34
M05
G1X0.326
M03
G1X1.284
M05
G1X0.3
M03
G1X0.3
M05
G1X0.628
M03
G1X0.3
M05
G1X0.861
M03
G1X0.334
M05
G1X3.097
M03
G1X7.002
M05
G1X0.326
M03
G1X0.34
M05
G1X2.5
G1X-0.045Y0.1
G1X-2.5
M03
G1X-0.343
M05
G1X-0.33
M03
G1X-7.092
M05
G1X-2.955
M03
G1X-0.334
M05
G1X-0.861
M03
G1X-0.3
M05
G1X-0.628
M03
G1X-0.3
M05
G1X-0.3
M03
G1X-1.233
M05
G1X-0.329
M03
G1X-0.343
M05
G1X-2.5
G1X0.05Y0.1
G1X2.5
M03
G1X0.341
M05
G1X0.333
M03
G1X1.181
M05
G1X0.3
M03
G1X0.3
M05
G1X0.628
M03
G1X0.3
M05
G1X0.861
M03
G1X0.334
M05
G1X0.6
M03
G1X9.396
M05
G1X0.333
M03
G1X0.341
M05
G1X2.5
G1X-0.051Y0.1
G1X-2.5
M03
G1X-0.339
M05
G1X-0.341
M03
G1X-9.339
M05
G1X-1.795
M03
G1X-0.3
M05
G1X-0.628
M03
G1X-0.3
M05
G1X-0.3
M03
G1X-1.124
M05
G1X-0.342
M03
G1X-0.338
M05
G1X-2.5
G1X0.051Y0.1
G1X2.5
M03
G1X0.342
M05
G1X0.344
M03
G1X1.067
M05
G1X0.3
M03
G1X0.3
M05
G1X0.628
M03
G1X0.3
M05
G1X1.795
M03
G1X9.281
M05
G1X0.345
M03
G1X0.342
M05
G1X2.5
G1X-0.052Y0.1
G1X-2.5
M03
G1X-0.351
M05
G1X-0.341
M03
G1X-9.224
M05
G1X-1.795
M03
G1X-0.3
M05
G1X-0.628
M03
G1X-0.3
M05
G1X-0.3
M03
G1X-1.009
M05
G1X-0.341
M03
G1X-0.351
M05
G1X-2.5
G1X0.057Y0.1
G1X2.5
M03
G1X0.354
M05
G1X0.343
M03
G1X0.947
M05
G1X0.3
M03
G1X0.3
M05
G1X0.644
M03
G1X0.845
M05
G1X1.218
M03
G1X9.178
M05
G1X0.342
M03
G1X0.354
M05
G1X2.5
G1X-0.057Y0.1
G1X-2.5
M03
G1X-0.357
M05
G1X-0.346
M03
G1X-9.172
M05
G1X-1.16
M03
G1X-0.787
M05
G1X-0.702
M03
G1X-0.3
M05
G1X-0.3
M03
G1X-0.883
M05
G1X-0.346
M03
G1X-0.357
M05
G1X-2.5
G1X0.058Y0.1
G1X2.5
M03
G1X0.36
M05
G1X0.349
M03
G1X0.819
M05
G1X0.3
M03
G1X0.3
M05
G1X0.884
M03
G1X0.605
M05
G1X0.974
M03
G1X9.294
M05
G1X0.349
M03
G1X0.36
M05
G1X2.5
G1X-0.061Y0.1
G1X-2.5
M03
G1X-0.36
M05
G1X-0.355
M03
G1X-9.901
M05
G1X-0.3
M03
G1X-0.3
M05
G1X-1.189
M03
G1X-0.3
M05
G1X-0.3
M03
G1X-0.752
M05
G1X-0.355
M03
G1X-0.361
M05
G1X-2.5
G1X0.064Y0.1
G1X2.5
M03
G1X0.358
M05
G1X0.365
M03
G1X0.681
M05
G1X0.3
M03
G1X0.3
M05
G1X1.189
M03
G1X0.3
M05
G1X0.3
M03
G1X9.829
M05
G1X0.366
M03
G1X0.357
M05
G1X2.5
G1X-0.064Y0.1
G1X-2.5
M03
G1X-0.364
M05
G1X-0.366
M03
G1X-9.758
M05
G1X-0.3
M03
G1X-0.3
M05
G1X-1.189
M03
G1X-0.3
M05
G1X-0.3
M03
G1X-0.609
M05
G1X-0.366
M03
G1X-0.364
M05
G1X-2.5
G1X0.064Y0.1
G1X2.5
M03
G1X0.375
M05
G1X0.364
M03
G1X0.536
M05
G1X0.3
M03
G1X0.3
M05
G1X1.189
M03
G1X0.3
M05
G1X0.3
M03
G1X9.685
M05
G1X0.364
M03
G1X0.374
M05
G1X2.5
G1X-0.071Y0.1
G1X-2.5
M03
G1X-0.378
M05
G1X-0.368
M03
G1X-8.757
M05
G1X-1.149
M03
G1X-1.789
M05
G1X-0.3
M03
G1X-0.457
M05
G1X-0.368
M03
G1X-0.379
M05
G1X-2.5
G1X0.072Y0.1
G1X2.5
M03
G1X0.381
M05
G1X0.373
M03
G1X0.378
M05
G1X0.3
M03
G1X1.789
M05
G1X1.213
M03
G1X8.614
M05
G1X0.372
M03
G1X0.382
M05
G1X2.5
G1X-0.071Y0.1
G1X-2.5
M03
G1X-0.386
M05
G1X-0.378
M03
G1X-8.512
M05
G1X-1.234
M03
G1X-1.789
M05
G1X-0.3
M03
G1X-0.297
M05
G1X-0.379
M03
G1X-0.385
M05
G1X-2.5
G1X0.076Y0.1
G1X2.5
M03
G1X0.384
M05
G1X0.39
M03
G1X0.224
M05
G1X6.575
M03
G1X5.16
M05
G1X0.391
M03
G1X0.383
M05
G1X2.5
G1X-0.078Y0.1
G1X-2.5
M03
G1X-0.387
M05
G1X-0.395
M03
G1X-4.959
M05
G1X-6.636
M03
G1X-0.191
M05
G1X-0.395
M03
G1X-0.387
M05
G1X-2.5
G1X0.079Y0.1
G1X2.5
M03
G1X0.399
M05
G1X0.395
M03
G1X0.25
M05
G1X6.53
M03
G1X4.824
M05
G1X0.395
M03
G1X0.399
M05
G1X2.5
G1X-0.083Y0.1
G1X-2.5
M03
G1X-0.407
M05
G1X-0.4
M03
G1X-4.72
M05
G1X-4.03
M03
G1X-0.336
M05
G1X-0.6
M03
G1X-1.726
M05
G1X-0.4
M03
G1X-0.407
M05
G1X-2.5
G1X0.086Y0.1
G1X2.5
M03
G1X0.412
M05
G1X0.404
M03
G1X1.631
M05
G1X0.6
M03
G1X0.365
M05
G1X4.001
M03
G1X4.625
M05
G1X0.404
M03
G1X0.411
M05
G1X2.5
G1X-0.086Y0.1
G1X-2.5
M03
G1X-0.416
M05
G1X-0.416
M03
G1X-4.522
M05
G1X-3.922
M03
G1X-0.444
M05
G1X-0.6
M03
G1X-1.528
M05
G1X-0.416
M03
G1X-0.416
M05
G1X-2.5
G1X0.09Y0.1
G1X2.5
M03
G1X0.417
M05
G1X0.43
M03
G1X1.423
M05
G1X0.6
M03
G1X3.766
M05
G1X0.6
M03
G1X4.417
M05
G1X0.43
M03
G1X0.416
M05
G1X2.5
G1X-0.095Y0.1
G1X-2.5
M03
G1X-0.424
M05
G1X-0.433
M03
G1X-4.311
M05
G1X-0.6
M03
G1X-3.766
M05
G1X-0.6
M03
G1X-1.317
M05
G1X-0.433
M03
G1X-0.424
M05
G1X-2.5
G1X0.096Y0.1
G1X2.5
M03
G1X0.438
M05
G1X0.439
M03
G1X1.201
M05
G1X4.966
M03
G1X4.195
M05
G1X0.439
M03
G1X0.438
M05
G1X2.5
G1X-0.1Y0.1
G1X-2.5
M03
G1X-0.448
M05
G1X-0.444
M03
G1X-4.08
M05
G1X-4.966
M03
G1X-1.086
M05
G1X-0.444
M03
G1X-0.448
M05
G1X-2.5
G1X0.105Y0.1
G1X2.5
M03
G1X0.453
M05
G1X0.457
M03
G1X0.963
M05
G1X4.966
M03
G1X3.956
M05
G1X0.457
M03
G1X0.454
M05
G1X2.5
G1X-0.105Y0.1
G1X-2.5
M03
G1X-0.459
M05
G1X-0.474
M03
G1X-3.832
M05
G1X-4.959
M03
G1X-0.839
M05
G1X-0.474
M03
G1X-0.459
M05
G1X-2.5
G1X0.112Y0.1
G1X2.5
M03
G1X0.465
M05
G1X0.488
M03
G1X0.74
M05
G1X4.892
M03
G1X3.734
M05
G1X0.488
M03
G1X0.464
M05
G1X2.5
G1X-0.115Y0.1
G1X-2.5
M03
G1X-0.483
M05
G1X-0.495
M03
G1X-3.682
M05
G1X-4.713
M03
G1X-0.69
M05
G1X-0.495
M03
G1X-0.482
M05
G1X-2.5
G1X0.116Y0.1
G1X2.5
M03
G1X0.5
M05
G1X0.503
M03
G1X8.801
M05
G1X0.503
M03
G1X0.501
M05
G1X2.5
G1X-0.127Y0.1
G1X-2.5
M03
G1X-0.508
M05
G1X-0.525
M03
G1X-8.488
M05
G1X-0.526
M03
G1X-0.507
M05
G1X-2.5
G1X0.128Y0.1
G1X2.5
M03
G1X0.513
M05
G1X0.549
M03
G1X8.174
M05
G1X0.549
M03
G1X0.513
M05
G1X2.5
G1X-0.134Y0.1
G1X-2.5
M03
G1X-0.532
M05
G1X-0.57
M03
G1X-7.826
M05
G1X-0.57
M03
G1X-0.533
M05
G1X-2.5
G1X0.141Y0.1
G1X2.5
M03
G1X0.557
M05
G1X0.582
M03
G1X7.472
M05
G1X0.582
M03
G1X0.557
M05
G1X2.5
G1X-0.143Y0.1
G1X-2.5
M03
G1X-0.579
M05
G1X-0.613
M03
G1X-7.08
M05
G1X-0.613
M03
G1X-0.579
M05
G1X-2.5
G1X0.157Y0.1
G1X2.5
M03
G1X0.587
M05
G1X0.654
M03
G1X6.667
M05
G1X0.655
M03
G1X0.587
M05
G1X2.5
G1X-0.156Y0.1
G1X-2.5
M03
G1X-0.618
M05
G1X-0.689
M03
G1X-6.224
M05
G1X-0.689
M03
G1X-0.618
M05
G1X-2.5
G1X0.172Y0.1
G1X2.5
M03
G1X0.654
M05
G1X0.729
M03
G1X5.728
M05
G1X0.729
M03
G1X0.653
M05
G1X2.5
G1X-0.173Y0.1
G1X-2.5
M03
G1X-0.688
M05
G1X-0.793
M03
G1X-5.184
M05
G1X-0.794
M03
G1X-0.686
M05
G1X-2.5
G1X0.192Y0.1
G1X2.5
M03
G1X0.707
M05
G1X0.887
M03
G1X4.572
M05
G1X0.887
M03
G1X0.706
M05
G1X2.5
G1X-0.196Y0.1
G1X-2.5
M03
G1X-0.783
M05
G1X-0.976
M03
G1X-3.848
M05
G1X-0.976
M03
G1X-0.784
M05
G1X-2.5
G1X0.222Y0.1
G1X2.5
M03
G1X0.836
M05
G1X1.166
M03
G1X2.92
M05
G1X1.166
M03
G1X0.836
M05
G1X2.5
G1X-0.231Y0.1
G1X-2.5
M03
G1X-0.915
M05
G1X-1.559
M03
G1X-1.514
M05
G1X-1.559
M03
G1X-0.915
M05
G1X-2.5
G1X0.255Y0.1
G1X2.5
M03
G1X1.049
M05
G1X3.854
M03
G1X1.05
M05
G1X2.5
G1X-0.287Y0.1
G1X-2.5
M03
G1X-1.232
M05
G1X-2.916
M03
G1X-1.232
M05
G1X-2.5
G1X0.322Y0.1
G1X2.5
M03
G1X1.639
M05
G1X1.458
M03
G1X1.639
M05
G1X2.5
G1X-0.378Y0.1
G1X-2.5
M03
G1X-3.981
M05
G1X-2.5
G1X0.478Y0.1
G1X2.5
M03
G1X3.025
M05
G1X2.5
G1X-0.739Y0.1
G1X-2.5
M03
G1X-1.548
M05
G1X-2.5
G90
; Cut @ 100 mm/sec, 20% power
M05
G0X37.047Y22.527
; Layer C16
M03
G1X36.943Y22.482
G1X36.841Y22.433
G1X36.869Y22.35
G1X36.901Y22.237
G1X36.931Y22.122
G1X36.959Y22.004
G1X36.984Y21.883
G1X37.007Y21.76
G1X37.028Y21.635
G1X37.045Y21.513
G1X37.06Y21.389
G1X37.114Y21.445
G1X37.169Y21.491
G1X37.227Y21.536
G1X37.289Y21.578
G1X37.355Y21.617
G1X37.423Y21.653
G1X37.495Y21.687
G1X37.57Y21.718
G1X37.649Y21.746
G1X37.73Y21.772
G1X37.814Y21.795
G1X37.902Y21.815
G1X37.993Y21.833
G1X38.087Y21.848
G1X38.184Y21.86
G1X38.284
G1X38.388
G1X38.494
G1X38.604
G1X38.733
G1X38.863
G1X38.994Y21.861
G1X39.127Y21.845
G1X39.26Y21.824
G1X39.395Y21.799
G1X39.531Y21.77
G1X39.668Y21.736
G1X39.807Y21.697
G1X39.948Y21.653
G1X40.091Y21.605
G1X40.237Y21.552
G1X40.384Y21.494
G1X40.534Y21.432
G1X40.686Y21.365
G1X40.84Y21.293
G1Y22.357
G1X40.687Y22.406
G1X40.534Y22.453
G1X40.382Y22.496
G1X40.231Y22.536
G1X40.081Y22.573
G1X39.932Y22.607
G1X39.783Y22.637
G1X39.636Y22.665
G1X39.489Y22.689
G1X39.343Y22.71
G1X39.197Y22.727
G1X39.053Y22.742
G1X38.908Y22.753
G1X38.765
G1X38.622
G1X38.48
G1X38.317
G1X38.158
G1X38.004Y22.746
G1X37.854Y22.729
G1X37.708Y22.707
G1X37.567Y22.681
G1X37.431Y22.649
G1X37.298Y22.613
G1X37.171Y22.572
G1X37.047Y22.527
M05
G0X37.064Y19.743
M03
G1X37.045Y19.579
G1X37.027Y19.451
G1X37.007Y19.325
G1X36.984Y19.201
G1X36.958Y19.08
G1X36.93Y18.962
G1X36.9Y18.845
G1X36.867Y18.732
G1X36.828Y18.613
G1X36.91Y18.575
G1X37.023Y18.528
G1X37.141Y18.484
G1X37.265Y18.441
G1X37.393Y18.401
G1X37.528Y18.363
G1X37.667Y18.328
G1X37.812Y18.294
G1X37.961Y18.263
G1X38.626Y18.133
G1X38.728Y18.111
G1X38.826Y18.088
G1X38.921Y18.064
G1X39.012Y18.039
G1X39.1Y18.012
G1X39.184Y17.984
G1X39.264Y17.954
G1X39.34Y17.924
G1X39.413Y17.892
G1X39.482Y17.858
G1X39.547Y17.824
G1X39.609Y17.788
G1X39.667Y17.75
G1X39.722Y17.712
G1X39.772Y17.672
G1X39.82Y17.631
G1X39.864Y17.588
G1X39.906Y17.543
G1X39.944Y17.496
G1X39.98Y17.447
G1X40.013Y17.396
G1X40.043Y17.343
G1X40.071Y17.288
G1X40.095Y17.231
G1X40.117Y17.172
G1X40.135Y17.111
G1X40.151Y17.048
G1X40.164Y16.982
G1Y16.915
G1Y16.846
G1Y16.775
G1Y16.702
G1Y16.618
G1Y16.536
G1Y16.457
G1X40.155Y16.381
G1X40.137Y16.307
G1X40.115Y16.235
G1X40.09Y16.166
G1X40.06Y16.099
G1X40.026Y16.035
G1X39.989Y15.973
G1X39.947Y15.914
G1X39.901Y15.857
G1X39.852Y15.802
G1X39.798Y15.75
G1X39.741Y15.701
G1X39.679Y15.654
G1X39.614Y15.609
G1X39.546Y15.568
G1X39.474Y15.529
G1X39.399Y15.493
G1X39.32Y15.46
G1X39.238Y15.43
G1X39.153Y15.403
G1X39.065Y15.378
G1X38.973Y15.357
G1X38.878Y15.338
G1X38.779Y15.322
G1X38.677Y15.309
G1X38.572
G1X38.464
G1X38.352
G1X38.237
G1X38.083
G1X37.928
G1X37.772Y15.313
G1X37.616Y15.334
G1X37.459Y15.36
G1X37.301Y15.393
G1X37.143Y15.431
G1X36.984Y15.476
G1X36.824Y15.526
G1X36.663Y15.582
G1X36.502Y15.643
G1X36.34Y15.71
G1X36.177Y15.784
G1X36.013Y15.862
G1X35.848Y15.947
G1X35.682Y16.037
G1Y14.914
G1X35.854Y14.852
G1X36.025Y14.795
G1X36.194Y14.741
G1X36.361Y14.691
G1X36.527Y14.645
G1X36.692Y14.603
G1X36.855Y14.565
G1X37.016Y14.53
G1X37.177Y14.5
G1X37.336Y14.474
G1X37.492Y14.451
G1X37.646Y14.433
G1X37.797Y14.419
G1X37.946Y14.409
G1X38.093
G1X38.237
G1X38.424
G1X38.605
G1X38.78Y14.422
G1X38.95Y14.439
G1X39.114Y14.46
G1X39.272Y14.486
G1X39.424Y14.516
G1X39.571Y14.552
G1X39.712Y14.592
G1X39.847Y14.637
G1X39.977Y14.687
G1X40.1Y14.741
G1X40.218Y14.8
G1X40.331Y14.864
G1X40.437Y14.932
G1X40.538Y15.006
G1X40.633Y15.083
G1X40.723Y15.166
G1X40.806Y15.252
G1X40.883Y15.344
G1X40.954Y15.439
G1X41.018Y15.539
G1X41.077Y15.643
G1X41.129Y15.752
G1X41.176Y15.866
G1X41.216Y15.983
G1X41.25Y16.105
G1X41.277Y16.232
G1X41.299Y16.363
G1X41.314Y16.498
G1Y16.638
G1Y16.783
G1Y16.904
G1Y17.022
G1X41.306Y17.137
G1X41.29Y17.249
G1X41.27Y17.358
G1X41.244Y17.464
G1X41.215Y17.566
G1X41.181Y17.666
G1X41.142Y17.762
G1X41.099Y17.855
G1X41.051Y17.945
G1X40.998Y18.032
G1X40.941Y18.116
G1X40.88Y18.197
G1X40.814Y18.275
G1X40.743Y18.349
G1X40.668Y18.421
G1X40.589Y18.491
G1X40.504Y18.557
G1X40.414Y18.621
G1X40.319Y18.682
G1X40.219Y18.74
G1X40.114Y18.796
G1X40.005Y18.849
G1X39.89Y18.899
G1X39.77Y18.946
G1X39.645Y18.99
G1X39.515Y19.032
G1X39.38Y19.07
G1X39.24Y19.106
G1X39.095Y19.14
G1X38.07Y19.348
G1X37.873Y19.395
G1X37.694Y19.445
G1X37.532Y19.498
G1X37.458Y19.526
G1X37.388Y19.554
G1X37.323Y19.584
G1X37.263Y19.614
G1X37.207Y19.645
G1X37.155Y19.677
G1X37.108Y19.709
G1X37.064Y19.743
; Cut @ 100 mm/sec, 20% power
M05
G0X35.717Y19.877
; Layer C27
M03
G1X35.699Y19.952
G1X35.684Y20.03
G1Y20.097
G1X32.201
G1Y22.6
G1X35.391
G1X35.355Y22.666
G1X35.318Y22.73
G1X35.276Y22.797
G1X35.233Y22.862
G1X35.187Y22.926
G1X35.14Y22.987
G1X35.092Y23.047
G1X35.041Y23.104
G1X34.989Y23.16
G1X34.935Y23.214
G1X34.88Y23.266
G1X34.823Y23.317
G1X34.736Y23.386
G1X32.201
G1Y24.064
G1X31.267
G1Y19.311
G1X35.688
G1X35.717Y19.471
G1Y19.877
M05
G0X35.633Y25.43
M03
G1Y26.217
G1X31.267
G1Y25.073
G1X32
G1X32.201
G1Y25.43
G1X35.633
M05
G1 S0
G90
; return to user-defined finish pos
G0 X0 Y0
M2
